LUT/Cinematic.cube
TITLE "Generate by Resolve"
LUT_3D_SIZE 9
0.0148165 0.0160372 0.0158999
0.0868544 0.0187991 0.0143587
0.184771 0.0291752 0.0151064
0.302724 0.0370184 0.0113985
0.450217 0.0468147 0.0223545
0.587457 0.0588693 0.0346838
0.692882 0.0834974 0.0433051
0.781323 0.110185 0.0495308
0.865049 0.14078 0.0567483
0.012604 0.075349 0.0137179
0.0790417 0.0752422 0.0133669
0.185061 0.0831159 0.0163424
0.312398 0.0884108 0.0117647
0.46659 0.0976577 0.023209
0.602441 0.111925 0.0355993
0.704402 0.135485 0.0436408
0.790585 0.160998 0.0496071
0.869657 0.189578 0.0551308
0.015671 0.148226 0.0179599
0.0683604 0.149004 0.0186007
0.165362 0.14995 0.018204
0.298665 0.15584 0.0122377
0.473747 0.170947 0.0229038
0.628443 0.183154 0.0371557
0.730755 0.197131 0.0445563
0.817334 0.218341 0.0495613
0.884794 0.244877 0.0525368
0.0183261 0.227207 0.0252079
0.0653239 0.228275 0.0253147
0.134615 0.234272 0.0276799
0.282811 0.236744 0.0212711
0.489006 0.253925 0.026688
0.651164 0.27541 0.0391089
0.755245 0.292271 0.0471199
0.841001 0.314595 0.0522316
0.904479 0.337896 0.0542306
0.0200198 0.32639 0.0438087
0.0648051 0.328405 0.0427558
0.124376 0.333974 0.038468
0.24036 0.366735 0.041062
0.519829 0.384421 0.0413062
0.69456 0.408591 0.0462654
0.79733 0.423728 0.0527352
0.862638 0.437018 0.0555123
0.924086 0.449058 0.057145
0.0270542 0.456489 0.0726635
0.0722515 0.46041 0.0716869
0.126284 0.467369 0.066453
0.209506 0.493919 0.0547341
0.525292 0.58587 0.0855421
0.736706 0.580697 0.077348
0.829557 0.585138 0.0729229
0.890043 0.578851 0.0694133
0.948409 0.573098 0.0670787
0.0398413 0.593835 0.100145
0.0846418 0.597589 0.0992447
0.135714 0.603235 0.0954147
0.20943 0.617182 0.0760662
0.478965 0.699626 0.0974441
0.730571 0.714946 0.0987411
0.841215 0.714443 0.0976577
0.906737 0.706188 0.0938582
0.963577 0.699565 0.0942245
0.0507057 0.700282 0.113863
0.0941634 0.703853 0.113313
0.144594 0.70985 0.109636
0.216403 0.721386 0.08925
0.442725 0.782376 0.0995346
0.721736 0.838087 0.145754
0.837385 0.813733 0.11104
0.908019 0.806058 0.1093
0.967147 0.79675 0.109224
0.0593729 0.793423 0.126574
0.102815 0.796124 0.125597
0.153216 0.803098 0.120897
0.227558 0.81387 0.097734
0.424247 0.859098 0.10454
0.690166 0.912413 0.151003
0.835004 0.922423 0.168734
0.904021 0.901045 0.12285
0.967514 0.889448 0.121126
0.0146181 0.0230106 0.0894331
0.0846418 0.0206607 0.0857099
0.190478 0.0311894 0.0799115
0.319112 0.0320592 0.0655222
0.468498 0.0433967 0.0713207
0.597391 0.0632181 0.0797131
0.699199 0.0856031 0.0870527
0.785702 0.110399 0.0937362
0.866072 0.140246 0.101488
0.0109255 0.0774395 0.0803693
0.0753338 0.0762798 0.0762493
0.183581 0.0852827 0.0693675
0.304723 0.0934615 0.0559701
0.45861 0.101732 0.0658122
0.600076 0.111833 0.078645
0.704768 0.132998 0.0867475
0.791775 0.161608 0.0932326
0.869566 0.189471 0.0997177
0.0136416 0.151827 0.0764019
0.0654154 0.1505 0.0704662
0.164157 0.150286 0.0661936
0.301396 0.155886 0.0584421
0.476799 0.167544 0.068101
0.624567 0.179934 0.0798505
0.725597 0.194491 0.0871138
0.812131 0.215961 0.0920729
0.881788 0.242329 0.095613
0.0162966 0.230945 0.0778821
0.0628061 0.230243 0.0733196
0.129198 0.232853 0.0710155
0.282612 0.236606 0.0651102
0.490562 0.253285 0.0698711
0.651301 0.273899 0.0823377
0.754894 0.289204 0.0900587
0.841703 0.309148 0.0948806
0.902846 0.331167 0.0965896
0.0173342 0.329519 0.0927138
0.0631418 0.331258 0.0898451
0.12134 0.334936 0.084062
0.235142 0.36527 0.082948
0.52224 0.385901 0.0863203
0.698161 0.409201 0.0909133
0.800015 0.422827 0.0965591
0.865431 0.43595 0.0991073
0.926024 0.448234 0.102251
0.0251469 0.460609 0.121294
0.0707256 0.464668 0.11928
0.124361 0.469245 0.112413
0.206638 0.49131 0.0980392
0.521263 0.587808 0.133944
0.73872 0.581765 0.125917
0.832502 0.584878 0.119493
0.892546 0.578851 0.114504
0.950362 0.572885 0.113985
0.0404974 0.598672 0.147814
0.0838026 0.601419 0.146624
0.134752 0.60502 0.140932
0.207065 0.615106 0.121462
0.467628 0.696635 0.138293
0.730083 0.718715 0.14699
0.84329 0.715114 0.144854
0.908385 0.707729 0.140856
0.965042 0.700801 0.140902
0.0514534 0.704829 0.161181
0.0946975 0.707698 0.159716
0.143786 0.710979 0.155001
0.214466 0.720455 0.134768
0.430076 0.778866 0.139849
0.718685 0.837537 0.190784
0.839048 0.814755 0.157473
0.909499 0.807492 0.155764
0.968414 0.798764 0.155749
0.060029 0.797681 0.176974
0.103288 0.799832 0.175189
0.152544 0.80444 0.1682
0.225086 0.812802 0.142947
0.414649 0.855665 0.145235
0.684215 0.912734 0.19559
0.835599 0.923323 0.214664
0.904921 0.901366 0.168475
0.968414 0.890043 0.166918
0.0138552 0.0397955 0.190768
0.0749676 0.0377356 0.191135
0.1794 0.0347143 0.180331
0.307683 0.0447242 0.168688
0.477791 0.0530556 0.1393
0.618997 0.0638895 0.143999
0.719905 0.0809796 0.147829
0.803113 0.109651 0.152651
0.8766 0.147066 0.159976
0.0111086 0.093492 0.182757
0.0673991 0.0914321 0.18529
0.178302 0.0886549 0.175525
0.314031 0.0952773 0.155306
0.484565 0.0967422 0.132555
0.618311 0.113024 0.135271
0.717479 0.132647 0.138064
0.802487 0.167071 0.14725
0.876234 0.195697 0.154116
0.0108186 0.155657 0.165713
0.06009 0.155154 0.163455
0.153185 0.154742 0.158526
0.294179 0.163394 0.133364
0.467796 0.170733 0.119921
0.617365 0.178759 0.126528
0.723415 0.192126 0.131777
0.811795 0.21648 0.138567
0.882658 0.243961 0.144305
0.0120546 0.245014 0.166506
0.0547951 0.241993 0.159304
0.119539 0.237171 0.144076
0.28072 0.241352 0.136126
0.497749 0.256321 0.12578
0.654108 0.271534 0.136156
0.752377 0.281163 0.138567
0.8365 0.302663 0.139391
0.897414 0.325658 0.141466
0.0145571 0.349569 0.176394
0.0568551 0.34699 0.169558
0.112978 0.342061 0.151019
0.208713 0.359457 0.137774
0.524544 0.390463 0.141833
0.706325 0.40882 0.145403
0.805371 0.416861 0.14902
0.870756 0.428153 0.150896
0.928222 0.441474 0.154726
0.0284581 0.489799 0.205951
0.0709392 0.488975 0.199878
0.118364 0.481422 0.181918
0.196155 0.488121 0.154803
0.499519 0.586694 0.188235
0.741772 0.584024 0.179507
0.839323 0.584146 0.171054
0.899214 0.577234 0.165667
0.955535 0.570092 0.165515
0.0438239 0.623484 0.231907
0.0862745 0.622492 0.225238
0.132403 0.615152 0.209583
0.201923 0.617151 0.18172
0.429511 0.687373 0.182925
0.727779 0.72845 0.202365
0.848463 0.718898 0.198962
0.913771 0.712596 0.195346
0.969421 0.703975 0.195117
0.0540475 0.725429 0.248585
0.096788 0.725872 0.242191
0.144244 0.722026 0.22678
0.211109 0.722972 0.197681
0.378668 0.765103 0.181521
0.70988 0.838361 0.243687
0.842695 0.818311 0.211093
0.913451 0.811475 0.210315
0.97142 0.803708 0.211048
0.0617227 0.814603 0.269459
0.104662 0.815244 0.262257
0.154086 0.814618 0.243961
0.222339 0.816281 0.208835
0.377539 0.844953 0.191058
0.666682 0.911086 0.246265
0.833738 0.926131 0.269322
0.907469 0.904311 0.222019
0.970916 0.893492 0.220813
0.0132753 0.0608835 0.299474
0.0683604 0.0588083 0.300099
0.156054 0.0561685 0.296468
0.292988 0.0541848 0.278294
0.455787 0.0723735 0.265202
0.619181 0.0856031 0.237995
0.729229 0.095964 0.229129
0.817884 0.116167 0.236759
0.888563 0.143145 0.24239
0.0110628 0.11725 0.294423
0.0628824 0.111543 0.298741
0.149706 0.108736 0.298314
0.29929 0.10457 0.275715
0.469581 0.12079 0.257084
0.630488 0.133577 0.228061
0.737331 0.140566 0.225116
0.822126 0.164538 0.232654
0.889204 0.190387 0.237507
0.0106813 0.183505 0.282963
0.0590982 0.181735 0.283238
0.123705 0.176226 0.289631
0.286168 0.173999 0.2692
0.482033 0.178805 0.231434
0.636713 0.182391 0.207477
0.736507 0.193622 0.20499
0.820432 0.227085 0.215167
0.88809 0.255177 0.223316
0.0112001 0.253285 0.271473
0.0545052 0.252583 0.268559
0.109255 0.248554 0.261921
0.246113 0.256611 0.263264
0.481895 0.269047 0.212329
0.643488 0.276646 0.201663
0.743053 0.281849 0.196094
0.827604 0.301625 0.20032
0.894286 0.324742 0.206821
0.0171664 0.375921 0.297917
0.0616922 0.383673 0.296391
0.111681 0.378424 0.275257
0.17406 0.365881 0.239048
0.509422 0.40293 0.223545
0.708812 0.415946 0.218921
0.802884 0.413184 0.211749
0.867903 0.422171 0.210407
0.921157 0.439292 0.213504
0.0352026 0.541985 0.349172
0.0773938 0.540322 0.33817
0.12462 0.526726 0.306569
0.179965 0.507485 0.260914
0.433478 0.577768 0.245731
0.738369 0.588769 0.238254
0.845426 0.585168 0.226749
0.905196 0.575784 0.220478
0.956786 0.564385 0.225071
0.0491035 0.665888 0.376928
0.0919509 0.664195 0.363836
0.140627 0.652049 0.329
0.193271 0.636881 0.284993
0.35082 0.668254 0.235599
0.713237 0.742702 0.274479
0.853437 0.724987 0.256626
0.919738 0.718959 0.252781
0.973709 0.7075 0.251331
0.0571756 0.757137 0.390906
0.101335 0.75697 0.378714
0.151507 0.749294 0.343633
0.204349 0.739345 0.298863
0.323323 0.751186 0.239994
0.681117 0.835737 0.298421
0.844968 0.825757 0.268269
0.918074 0.816953 0.266743
0.974304 0.810925 0.270497
0.062974 0.836652 0.407996
0.108293 0.83682 0.394812
0.160449 0.834226 0.360464
0.215961 0.829557 0.311635
0.342443 0.839033 0.252049
0.636301 0.904356 0.300587
0.821546 0.929778 0.328954
0.909529 0.909361 0.279179
0.972656 0.898329 0.277287
0.0189975 0.104601 0.427588
0.0719463 0.0890211 0.425071
0.156558 0.088365 0.424201
0.258289 0.0870222 0.413046
0.43595 0.088304 0.37322
0.603159 0.100908 0.367819
0.723262 0.12398 0.37023
0.819821 0.142885 0.367605
0.900938 0.169162 0.369284
0.0168917 0.164538 0.425528
0.0679026 0.145724 0.429374
0.148318 0.140078 0.42855
0.254429 0.139544 0.419532
0.446677 0.137087 0.373678
0.611582 0.150164 0.367071
0.731167 0.171191 0.368017
0.824765 0.192706 0.363943
0.902586 0.218265 0.366171
0.0161898 0.231312 0.419593
0.0643015 0.229221 0.422126
0.119478 0.20763 0.428717
0.229526 0.206546 0.426932
0.444923 0.198474 0.375555
0.620508 0.209934 0.361837
0.741634 0.227787 0.350545
0.831785 0.252003 0.346609
0.903197 0.274723 0.350271
0.0159915 0.299779 0.416022
0.059968 0.300771 0.417487
0.114504 0.29546 0.419303
0.190341 0.293858 0.437324
0.447822 0.294713 0.397543
0.644404 0.297658 0.361608
0.756252 0.297276 0.33167
0.838514 0.312032 0.318898
0.901396 0.329061 0.313985
0.0173037 0.392187 0.423178
0.0610056 0.396445 0.425986
0.114702 0.399985 0.428321
0.177218 0.406836 0.433097
0.413062 0.446555 0.444816
0.681102 0.449439 0.378698
0.784482 0.43769 0.319203
0.856474 0.433036 0.296956
0.914366 0.446723 0.299092
0.0313115 0.548104 0.486702
0.0791028 0.557992 0.488792
0.134691 0.56875 0.486229
0.196201 0.584527 0.47631
0.292668 0.577829 0.407553
0.714687 0.613916 0.376944
0.846036 0.601114 0.34229
0.905425 0.585458 0.32668
0.953643 0.570077 0.318029
0.0506142 0.697444 0.541665
0.101061 0.706584 0.541604
0.152438 0.702281 0.518242
0.207126 0.694224 0.478157
0.277104 0.684779 0.394263
0.665736 0.759426 0.40145
0.850599 0.737194 0.336339
0.92163 0.732494 0.338048
0.974777 0.714183 0.333623
0.0623636 0.789837 0.557458
0.109438 0.790021 0.546609
0.16051 0.78584 0.519188
0.214221 0.779065 0.475013
0.292897 0.775311 0.383398
0.611734 0.828672 0.377707
0.836454 0.848447 0.371283
0.919676 0.829343 0.341833
0.975082 0.823316 0.356588
0.0692454 0.862013 0.561456
0.11577 0.86334 0.552209
0.168917 0.863264 0.527703
0.22472 0.860182 0.483528
0.322698 0.862699 0.388388
0.576791 0.893965 0.370001
0.789227 0.937285 0.413046
0.911315 0.922255 0.363882
0.972747 0.906203 0.348577
0.0272526 0.147997 0.550591
0.0803845 0.127184 0.551263
0.167193 0.127031 0.549737
0.263218 0.12697 0.539254
0.399527 0.126207 0.510338
0.594247 0.118593 0.459297
0.719005 0.123323 0.456199
0.814862 0.150591 0.488838
0.897383 0.18967 0.529778
0.0257267 0.21471 0.552026
0.0763104 0.189929 0.557687
0.157427 0.17911 0.555795
0.253376 0.179004 0.547875
0.395972 0.178042 0.516442
0.600153 0.167224 0.461906
0.723262 0.171008 0.458457
0.818586 0.201709 0.4925
0.900572 0.241764 0.533837
0.0256962 0.282994 0.553658
0.0730144 0.28101 0.556756
0.12723 0.251865 0.562936
0.224598 0.2383 0.560769
0.365133 0.233951 0.529549
0.605066 0.220676 0.466102
0.730037 0.230411 0.460365
0.8262 0.270787 0.497749
0.907286 0.307561 0.53843
0.0256352 0.350011 0.553826
0.0693828 0.351751 0.557046
0.122805 0.347967 0.562173
0.183505 0.33521 0.578256
0.336919 0.332479 0.572885
0.623072 0.318486 0.498787
0.746609 0.322469 0.486946
0.838437 0.350027 0.514366
0.921157 0.37702 0.531579
0.0272221 0.442222 0.57319
0.0719463 0.446586 0.577768
0.126268 0.449149 0.583627
0.187106 0.455711 0.596551
0.305364 0.47306 0.635187
0.663218 0.478645 0.605737
0.790082 0.463035 0.565499
0.869825 0.45066 0.527321
0.931945 0.455772 0.493294
0.0338903 0.559304 0.604273
0.0843366 0.566522 0.609323
0.140352 0.574334 0.61387
0.201053 0.588022 0.62211
0.269017 0.603815 0.627955
0.660166 0.656626 0.637049
0.822278 0.643854 0.589364
0.901701 0.616922 0.523812
0.953033 0.603571 0.478889
0.0514687 0.693507 0.650553
0.101503 0.700755 0.652354
0.157015 0.708721 0.65214
0.215854 0.720424 0.651148
0.280842 0.741802 0.643015
0.566094 0.765301 0.587243
0.840696 0.767437 0.548959
0.927474 0.754635 0.52575
0.981292 0.731914 0.499382
0.0641337 0.792004 0.671397
0.113237 0.7991 0.673136
0.1682 0.808392 0.671534
0.225055 0.819257 0.664912
0.285542 0.820417 0.620706
0.548882 0.838834 0.541451
0.799649 0.87718 0.562768
0.92221 0.850782 0.48217
0.981231 0.845212 0.497932
0.0756695 0.876478 0.686549
0.124407 0.885191 0.688441
0.179675 0.892012 0.680797
0.235142 0.893751 0.658289
0.296666 0.893309 0.604364
0.536339 0.909117 0.517983
0.743969 0.940902 0.529488
0.909209 0.949355 0.536736
0.97528 0.920729 0.455146
0.0352178 0.178866 0.657908
0.0902724 0.162921 0.66331
0.17879 0.162844 0.661067
0.274434 0.160296 0.650111
0.383764 0.154284 0.633783
0.562783 0.159152 0.610559
0.708888 0.149722 0.589563
0.809293 0.158373 0.597009
0.891768 0.187442 0.621561
0.034165 0.248859 0.661372
0.0844587 0.223301 0.669474
0.168688 0.215412 0.66862
0.262654 0.211948 0.658717
0.377264 0.206729 0.64271
0.56527 0.209949 0.617838
0.712123 0.198276 0.595438
0.81181 0.2065 0.600458
0.894911 0.240162 0.628397
0.0345769 0.326848 0.668879
0.0808118 0.322957 0.670878
0.13576 0.290105 0.677775
0.231327 0.268727 0.673533
0.351385 0.265644 0.662364
0.556558 0.26569 0.633951
0.71809 0.255192 0.607004
0.818845 0.274372 0.609628
0.903822 0.31046 0.644358
0.0348669 0.394965 0.674891
0.0781109 0.395102 0.67744
0.130129 0.38819 0.681132
0.187701 0.365286 0.691493
0.323613 0.35935 0.702449
0.564462 0.360204 0.681193
0.734676 0.346914 0.643503
0.834318 0.355383 0.63209
0.922744 0.395605 0.675471
0.0359808 0.482155 0.692653
0.0803998 0.484932 0.696391
0.133883 0.484825 0.700252
0.192737 0.486992 0.710353
0.285878 0.485756 0.740536
0.578012 0.495125 0.760922
0.782666 0.477363 0.715892
0.86952 0.476036 0.697581
0.952377 0.504036 0.710033
0.0431678 0.59234 0.725505
0.0935073 0.597482 0.730098
0.149752 0.602457 0.734722
0.209903 0.612619 0.744305
0.274998 0.622629 0.760815
0.534691 0.653437 0.794553
0.813855 0.646159 0.774472
0.90663 0.630579 0.750408
0.963867 0.618326 0.711604
0.0536049 0.693324 0.745418
0.103883 0.699687 0.748959
0.161059 0.709072 0.754253
0.221302 0.721935 0.761746
0.283726 0.737408 0.768292
0.462974 0.769406 0.783139
0.802121 0.797253 0.77705
0.924727 0.783017 0.748653
0.979614 0.766018 0.713817
0.0665141 0.787717 0.763333
0.11577 0.794812 0.766644
0.172503 0.80557 0.771695
0.230869 0.818097 0.77641
0.291539 0.833692 0.776516
0.421057 0.86276 0.769009
0.750561 0.884276 0.735882
0.921736 0.878843 0.712001
0.988418 0.87097 0.712184
0.080354 0.873213 0.779049
0.128618 0.879606 0.781857
0.186328 0.890181 0.785275
0.244587 0.901915 0.784054
0.304204 0.918578 0.773388
0.404868 0.925704 0.727352
0.712917 0.945434 0.671458
0.888899 0.96408 0.678889
0.98146 0.940795 0.6224
0.042237 0.224567 0.751049
0.0957504 0.204013 0.761959
0.188815 0.196109 0.767163
0.286397 0.192203 0.761212
0.393347 0.187274 0.754559
0.537682 0.187167 0.750591
0.696727 0.185031 0.741024
0.803326 0.184955 0.733333
0.889738 0.205386 0.739498
0.0416724 0.288228 0.754742
0.0908064 0.270848 0.76379
0.177157 0.248295 0.771969
0.272755 0.244038 0.767605
0.385199 0.23917 0.761212
0.536736 0.237537 0.756664
0.70074 0.233234 0.746075
0.80621 0.233249 0.737957
0.892714 0.258442 0.744701
0.0419165 0.359884 0.762631
0.0873121 0.356085 0.765591
0.142382 0.321263 0.773404
0.240787 0.301305 0.776181
0.356085 0.299031 0.773297
0.52192 0.295537 0.769802
0.704494 0.289479 0.758099
0.813687 0.300343 0.748638
0.901854 0.329885 0.759747
0.0422827 0.429816 0.771481
0.0852674 0.429038 0.773816
0.136233 0.420661 0.776089
0.193942 0.391577 0.785
0.325628 0.384649 0.798764
0.513634 0.390951 0.803052
0.723857 0.375601 0.787549
0.830884 0.38201 0.771984
0.921386 0.41265 0.786297
0.0432898 0.514611 0.789395
0.087541 0.516426 0.792798
0.140963 0.515038 0.795392
0.199207 0.51284 0.800992
0.28632 0.502068 0.826215
0.499413 0.51397 0.851667
0.763119 0.499077 0.841657
0.865766 0.493202 0.819257
0.953277 0.518303 0.819013
0.0490272 0.614359 0.814557
0.0988632 0.617472 0.818204
0.155169 0.6215 0.822858
0.215366 0.628061 0.830747
0.280034 0.634897 0.84979
0.451621 0.646586 0.873411
0.775952 0.64596 0.882216
0.896361 0.63299 0.860609
0.97319 0.640421 0.847135
0.0613718 0.712306 0.83682
0.111498 0.716991 0.840345
0.168627 0.72398 0.845609
0.228138 0.73463 0.853513
0.289693 0.748135 0.86537
0.42826 0.768902 0.882185
0.75938 0.790845 0.899641
0.914733 0.783734 0.884886
0.982406 0.77261 0.865995
0.0710307 0.78764 0.841184
0.120241 0.793591 0.844709
0.177569 0.803281 0.850736
0.236088 0.814359 0.857908
0.296269 0.828931 0.86685
0.393423 0.849287 0.876387
0.717144 0.882078 0.888701
0.901457 0.896513 0.874723
0.992416 0.890425 0.86453
0.0851606 0.868833 0.85333
0.133303 0.874647 0.856611
0.191135 0.884215 0.862211
0.248569 0.893355 0.866621
0.306172 0.903792 0.869947
0.371191 0.918669 0.868666
0.619593 0.957321 0.855634
0.858259 0.9682 0.816785
0.986282 0.964797 0.808606
0.0480964 0.263508 0.824689
0.0989242 0.245197 0.835676
0.191959 0.221714 0.847318
0.291402 0.218967 0.849119
0.400763 0.215793 0.850828
0.519417 0.214527 0.854551
0.681361 0.211276 0.858671
0.80383 0.221164 0.854536
0.889982 0.233722 0.847974
0.0476997 0.320653 0.82855
0.0960861 0.310674 0.836439
0.180468 0.274784 0.85037
0.27686 0.271351 0.853956
0.393088 0.267201 0.855344
0.518914 0.264622 0.858473
0.684108 0.264057 0.860914
0.806226 0.271382 0.857877
0.893416 0.285634 0.852979
0.0482185 0.391287 0.841627
0.0930495 0.388052 0.844785
0.145678 0.36466 0.85211
0.245396 0.344991 0.865034
0.363806 0.338216 0.867247
0.50042 0.336736 0.869963
0.689464 0.33669 0.872267
0.814969 0.337881 0.868757
0.905653 0.356481 0.869337
0.0486 0.461204 0.852079
0.0915389 0.459998 0.854154
0.142443 0.453864 0.85803
0.197971 0.427085 0.868666
0.334081 0.41976 0.884703
0.485222 0.42295 0.891707
0.712902 0.422705 0.896086
0.835584 0.419562 0.889876
0.929381 0.443458 0.895354
0.0494087 0.543801 0.86891
0.094728 0.545144 0.871794
0.149432 0.545068 0.875731
0.208682 0.543236 0.882689
0.295232 0.524102 0.905013
0.465187 0.526116 0.921828
0.741955 0.531334 0.933898
0.864088 0.52665 0.925795
0.95584 0.547967 0.928222
0.0561685 0.635523 0.888869
0.106477 0.638575 0.892088
0.163546 0.64242 0.897841
0.224125 0.646235 0.905837
0.288151 0.644755 0.921004
0.440131 0.644038 0.944717
0.732021 0.646174 0.962753
0.879484 0.643397 0.955871
0.971542 0.656321 0.952071
0.0681773 0.724727 0.90724
0.118303 0.728084 0.910491
0.176059 0.733227 0.916228
0.23566 0.740154 0.923522
0.295811 0.748425 0.934203
0.400305 0.760555 0.954772
0.717998 0.771557 0.975738
0.890425 0.771344 0.975967
0.984009 0.775494 0.970825
0.0796979 0.801358 0.918517
0.128481 0.80531 0.921477
0.185946 0.811688 0.926619
0.244251 0.819181 0.932143
0.303319 0.830076 0.941161
0.364736 0.845029 0.956237
0.665461 0.869291 0.976425
0.881056 0.887541 0.980407
0.991531 0.886061 0.976226
0.0904402 0.867796 0.922057
0.138231 0.872236 0.925048
0.195727 0.87985 0.930709
0.25272 0.886946 0.935286
0.309819 0.895262 0.940841
0.367346 0.90779 0.949508
0.490181 0.928359 0.960098
0.813611 0.959442 0.970901
0.984634 0.982361 0.962676
