LUT/Cinematic.cube
TITLE "Generate by Resolve"
LUT_3D_SIZE 5
0.0148165 0.0160372 0.0158999
0.184771 0.0291752 0.0151064
0.450217 0.0468147 0.0223545
0.692882 0.0834974 0.0433051
0.865049 0.14078 0.0567483
0.015671 0.148226 0.0179599
0.165362 0.14995 0.018204
0.473747 0.170947 0.0229038
0.730755 0.197131 0.0445563
0.884794 0.244877 0.0525368
0.0200198 0.32639 0.0438087
0.124376 0.333974 0.038468
0.519829 0.384421 0.0413062
0.79733 0.423728 0.0527352
0.924086 0.449058 0.057145
0.0398413 0.593835 0.100145
0.135714 0.603235 0.0954147
0.478965 0.699626 0.0974441
0.841215 0.714443 0.0976577
0.963577 0.699565 0.0942245
0.0593729 0.793423 0.126574
0.153216 0.803098 0.120897
0.424247 0.859098 0.10454
0.835004 0.922423 0.168734
0.967514 0.889448 0.121126
0.0138552 0.0397955 0.190768
0.1794 0.0347143 0.180331
0.477791 0.0530556 0.1393
0.719905 0.0809796 0.147829
0.8766 0.147066 0.159976
0.0108186 0.155657 0.165713
0.153185 0.154742 0.158526
0.467796 0.170733 0.119921
0.723415 0.192126 0.131777
0.882658 0.243961 0.144305
0.0145571 0.349569 0.176394
0.112978 0.342061 0.151019
0.524544 0.390463 0.141833
0.805371 0.416861 0.14902
0.928222 0.441474 0.154726
0.0438239 0.623484 0.231907
0.132403 0.615152 0.209583
0.429511 0.687373 0.182925
0.848463 0.718898 0.198962
0.969421 0.703975 0.195117
0.0617227 0.814603 0.269459
0.154086 0.814618 0.243961
0.377539 0.844953 0.191058
0.833738 0.926131 0.269322
0.970916 0.893492 0.220813
0.0189975 0.104601 0.427588
0.156558 0.088365 0.424201
0.43595 0.088304 0.37322
0.723262 0.12398 0.37023
0.900938 0.169162 0.369284
0.0161898 0.231312 0.419593
0.119478 0.20763 0.428717
0.444923 0.198474 0.375555
0.741634 0.227787 0.350545
0.903197 0.274723 0.350271
0.0173037 0.392187 0.423178
0.114702 0.399985 0.428321
0.413062 0.446555 0.444816
0.784482 0.43769 0.319203
0.914366 0.446723 0.299092
0.0506142 0.697444 0.541665
0.152438 0.702281 0.518242
0.277104 0.684779 0.394263
0.850599 0.737194 0.336339
0.974777 0.714183 0.333623
0.0692454 0.862013 0.561456
0.168917 0.863264 0.527703
0.322698 0.862699 0.388388
0.789227 0.937285 0.413046
0.972747 0.906203 0.348577
0.0352178 0.178866 0.657908
0.17879 0.162844 0.661067
0.383764 0.154284 0.633783
0.708888 0.149722 0.589563
0.891768 0.187442 0.621561
0.0345769 0.326848 0.668879
0.13576 0.290105 0.677775
0.351385 0.265644 0.662364
0.71809 0.255192 0.607004
0.903822 0.31046 0.644358
0.0359808 0.482155 0.692653
0.133883 0.484825 0.700252
0.285878 0.485756 0.740536
0.782666 0.477363 0.715892
0.952377 0.504036 0.710033
0.0536049 0.693324 0.745418
0.161059 0.709072 0.754253
0.283726 0.737408 0.768292
0.802121 0.797253 0.77705
0.979614 0.766018 0.713817
0.080354 0.873213 0.779049
0.186328 0.890181 0.785275
0.304204 0.918578 0.773388
0.712917 0.945434 0.671458
0.98146 0.940795 0.6224
0.0480964 0.263508 0.824689
0.191959 0.221714 0.847318
0.400763 0.215793 0.850828
0.681361 0.211276 0.858671
0.889982 0.233722 0.847974
0.0482185 0.391287 0.841627
0.145678 0.36466 0.85211
0.363806 0.338216 0.867247
0.689464 0.33669 0.872267
0.905653 0.356481 0.869337
0.0494087 0.543801 0.86891
0.149432 0.545068 0.875731
0.295232 0.524102 0.905013
0.741955 0.531334 0.933898
0.95584 0.547967 0.928222
0.0681773 0.724727 0.90724
0.176059 0.733227 0.916228
0.295811 0.748425 0.934203
0.717998 0.771557 0.975738
0.984009 0.775494 0.970825
0.0904402 0.867796 0.922057
0.195727 0.87985 0.930709
0.309819 0.895262 0.940841
0.490181 0.928359 0.960098
0.984634 0.982361 0.962676
