LUT/Cinematic.cube
TITLE "Generate by Resolve"
LUT_3D_SIZE 33
0.0148165 0.0160372 0.0158999
0.0322728 0.0159762 0.0150454
0.0491951 0.0165713 0.0146639
0.0663005 0.0173648 0.0145418
0.0868544 0.0187991 0.0143587
0.109468 0.0208591 0.014313
0.133242 0.0234531 0.014374
0.158801 0.0264439 0.0148165
0.184771 0.0291752 0.0151064
0.21178 0.0315709 0.0148165
0.240391 0.0338445 0.0135653
0.270451 0.0359045 0.0115358
0.302724 0.0370184 0.0113985
0.337377 0.0379492 0.0127565
0.374746 0.0403906 0.0155795
0.412345 0.0436255 0.0188449
0.450217 0.0468147 0.0223545
0.486686 0.0499428 0.025742
0.521752 0.0526131 0.0289158
0.555169 0.055314 0.0318608
0.587457 0.0588693 0.0346838
0.616709 0.0645609 0.0372778
0.64332 0.070573 0.0395361
0.668833 0.0769818 0.0415503
0.692882 0.0834974 0.0433051
0.716045 0.090013 0.0448615
0.738186 0.0962997 0.0463569
0.759869 0.102754 0.0478523
0.781323 0.110185 0.0495308
0.802869 0.117388 0.0511025
0.823819 0.124361 0.0525521
0.844877 0.132128 0.0545815
0.865049 0.14078 0.0567483
0.0131228 0.0303502 0.0142519
0.0294804 0.0299992 0.0135195
0.0472725 0.0299535 0.0130922
0.0648966 0.0305791 0.0134279
0.0855573 0.0317693 0.0137484
0.108614 0.0335393 0.0140078
0.132753 0.0358892 0.0142061
0.158679 0.0385901 0.0146792
0.185031 0.0411688 0.0150759
0.212284 0.0434272 0.0147097
0.241001 0.0456245 0.0133364
0.271015 0.047715 0.0113985
0.303273 0.0491493 0.0113832
0.337972 0.0504005 0.0127565
0.375265 0.0529183 0.0154726
0.413108 0.0562295 0.0187686
0.451164 0.0593423 0.0223087
0.48806 0.06215 0.025742
0.523461 0.0646677 0.0289464
0.556863 0.0675364 0.0318914
0.589014 0.0721141 0.0347448
0.618204 0.0780346 0.0373541
0.644999 0.0839399 0.0395972
0.670436 0.0901503 0.0415961
0.694499 0.0963912 0.0433356
0.717479 0.102556 0.0448768
0.739513 0.108614 0.0463874
0.76109 0.115114 0.0478828
0.782513 0.122469 0.0495766
0.804211 0.129274 0.0510567
0.825132 0.135988 0.0525063
0.846067 0.143771 0.054551
0.865522 0.15169 0.0564279
0.0125734 0.0447852 0.0137636
0.0278019 0.0445869 0.0131533
0.0446937 0.0442359 0.0125277
0.0634012 0.0440681 0.012604
0.0847181 0.0452125 0.0132753
0.108431 0.0471199 0.0140078
0.133425 0.0496376 0.0148165
0.160433 0.0523079 0.0155337
0.187396 0.0545663 0.0156558
0.215412 0.0563668 0.0149233
0.244465 0.0581979 0.0132143
0.274601 0.0600443 0.0112917
0.306935 0.0611887 0.0114748
0.341909 0.0628519 0.0129702
0.378882 0.0656596 0.01561
0.416709 0.0687114 0.0189212
0.454627 0.0715343 0.0224765
0.491585 0.0742199 0.0259098
0.526818 0.0769665 0.029099
0.560006 0.0802167 0.0320592
0.591913 0.0854353 0.0349126
0.621118 0.0914778 0.0375219
0.64799 0.0973373 0.0397803
0.673274 0.103487 0.0417334
0.69723 0.109575 0.0434424
0.720073 0.115648 0.0449836
0.741985 0.121584 0.0464637
0.763378 0.128634 0.0480049
0.784833 0.136034 0.0496834
0.806546 0.14313 0.0510872
0.827649 0.149706 0.0525673
0.848585 0.158099 0.0547036
0.866468 0.164431 0.0560922
0.0124361 0.0592508 0.0135195
0.0268101 0.059205 0.0132448
0.0432288 0.0595865 0.0132753
0.060914 0.0589761 0.0125887
0.0830091 0.0591897 0.0128481
0.107118 0.0608835 0.0137789
0.132555 0.063447 0.0147707
0.160021 0.0663462 0.0158083
0.187427 0.0688029 0.0162661
0.216007 0.070634 0.0157168
0.246082 0.0719921 0.0136568
0.277302 0.0734264 0.0113527
0.310735 0.0740063 0.0116121
0.346807 0.0755016 0.0132448
0.384054 0.0781567 0.0157626
0.422065 0.0812238 0.0192264
0.459785 0.0840467 0.022797
0.496803 0.0869154 0.0262455
0.531945 0.0899214 0.0294652
0.564981 0.0932937 0.0323796
0.596262 0.0987564 0.0352026
0.625162 0.104692 0.0377661
0.651759 0.110475 0.0400092
0.676585 0.116609 0.0418708
0.700298 0.122591 0.0435187
0.722835 0.128466 0.0450599
0.744472 0.13434 0.0465095
0.765652 0.141344 0.0480201
0.787076 0.148669 0.0496834
0.808865 0.155489 0.0510109
0.830045 0.162524 0.0525216
0.850889 0.170672 0.054612
0.867704 0.177264 0.0557717
0.012604 0.075349 0.0137179
0.0254215 0.075349 0.0136568
0.0410773 0.075761 0.0137026
0.0584421 0.0762188 0.0142367
0.0790417 0.0752422 0.0133669
0.104005 0.0755932 0.013611
0.129854 0.0777295 0.0146944
0.157519 0.0804761 0.0157321
0.185061 0.0831159 0.0163424
0.21416 0.0853895 0.0161288
0.244831 0.0870069 0.014313
0.277043 0.088426 0.0116579
0.312398 0.0884108 0.0117647
0.350729 0.0893111 0.0134585
0.389303 0.0918593 0.0160525
0.428244 0.0947738 0.0195621
0.46659 0.0976577 0.023209
0.503853 0.100633 0.0267033
0.53872 0.103822 0.0299077
0.571756 0.107195 0.0328679
0.602441 0.111925 0.0355993
0.630671 0.1178 0.0380865
0.656748 0.123568 0.040238
0.681239 0.129625 0.0420386
0.704402 0.135485 0.0436408
0.726528 0.141192 0.0451057
0.74789 0.14696 0.04654
0.769192 0.153826 0.0480354
0.790585 0.160998 0.0496071
0.812238 0.167758 0.0508583
0.833234 0.174853 0.0523537
0.853513 0.182986 0.0542763
0.869657 0.189578 0.0551308
0.0131228 0.0929274 0.0143893
0.0251011 0.092958 0.0144198
0.039704 0.0932326 0.0145418
0.0556497 0.0936446 0.0148928
0.0750896 0.0941482 0.0156405
0.0987869 0.0928511 0.0143587
0.125704 0.0931411 0.0148013
0.153353 0.0953994 0.0158389
0.181262 0.0978256 0.016495
0.210407 0.10013 0.0162966
0.241108 0.102266 0.0149233
0.273518 0.104265 0.0123903
0.309285 0.104997 0.0118868
0.349325 0.105318 0.0135805
0.390036 0.107576 0.0160525
0.431144 0.110323 0.0194247
0.471077 0.11313 0.0232395
0.509987 0.116136 0.0269932
0.54519 0.119234 0.0301976
0.579187 0.122591 0.0333104
0.610086 0.126116 0.035996
0.638102 0.131075 0.0384222
0.663706 0.136736 0.0404669
0.687572 0.14258 0.0422217
0.710353 0.148348 0.0437781
0.732113 0.153872 0.0451972
0.753231 0.159823 0.0465858
0.774456 0.166674 0.0480201
0.795712 0.173587 0.0493629
0.817044 0.180499 0.05066
0.837781 0.187869 0.0521401
0.857145 0.195666 0.0535592
0.872648 0.202304 0.0541238
0.0138857 0.110872 0.0153658
0.0253147 0.110979 0.0154421
0.0391852 0.111208 0.0156558
0.054551 0.111559 0.0159152
0.0721752 0.11223 0.0165408
0.0943618 0.113176 0.0176394
0.120424 0.111254 0.0155337
0.148913 0.111727 0.0161288
0.177203 0.113802 0.0168154
0.2065 0.115938 0.0167391
0.237522 0.117876 0.0153353
0.270161 0.120104 0.0129854
0.305821 0.122255 0.0120394
0.345998 0.123644 0.0137179
0.388251 0.125505 0.0160983
0.431525 0.128252 0.0191958
0.473259 0.130831 0.0230564
0.513954 0.133806 0.0270237
0.550423 0.136858 0.0303807
0.585779 0.140169 0.0336461
0.617411 0.143542 0.0364233
0.645502 0.146685 0.0387427
0.671016 0.151186 0.0406958
0.694667 0.155978 0.042359
0.717296 0.161044 0.0438544
0.738567 0.166705 0.045243
0.759503 0.173022 0.0466163
0.780667 0.179767 0.0478981
0.802029 0.186694 0.0491493
0.823209 0.193851 0.0504768
0.843671 0.20145 0.0519722
0.861158 0.208774 0.052781
0.876326 0.215641 0.0532387
0.0147707 0.129381 0.0166476
0.0260014 0.129519 0.0167086
0.0388952 0.129778 0.0168765
0.053666 0.129931 0.0170748
0.0697642 0.13051 0.0175174
0.0893721 0.131655 0.0183871
0.114015 0.132876 0.0195163
0.142061 0.13022 0.0168154
0.172045 0.130892 0.01738
0.201724 0.132769 0.0173648
0.233021 0.134585 0.0161135
0.266239 0.136431 0.0135348
0.302449 0.138781 0.0121462
0.343191 0.141405 0.0139315
0.384985 0.145068 0.0163424
0.43006 0.148104 0.0193179
0.473686 0.150607 0.022858
0.515785 0.153536 0.0268864
0.553948 0.156329 0.0304875
0.5906 0.159487 0.0339208
0.62324 0.162554 0.0368353
0.651774 0.165805 0.0391546
0.677623 0.169268 0.0410468
0.701427 0.173007 0.0426795
0.724056 0.177188 0.0441138
0.745602 0.181384 0.0454108
0.766674 0.186679 0.0466316
0.787823 0.193637 0.0478828
0.809277 0.200488 0.0491493
0.830472 0.207492 0.0505074
0.849485 0.214755 0.0516823
0.86511 0.222049 0.0521553
0.880323 0.229374 0.0526894
0.015671 0.148226 0.0179599
0.0267948 0.148333 0.0179599
0.03888 0.148501 0.0181277
0.0530556 0.148623 0.0182956
0.0683604 0.149004 0.0186007
0.0855116 0.149981 0.0191806
0.107836 0.151614 0.0204166
0.135927 0.15314 0.0214542
0.165362 0.14995 0.018204
0.196445 0.150561 0.0181125
0.228077 0.152132 0.0170443
0.261982 0.153903 0.0146181
0.298665 0.15584 0.0122377
0.340612 0.158679 0.0140993
0.383368 0.162844 0.0166323
0.428656 0.16733 0.0196384
0.473747 0.170947 0.0229038
0.51751 0.174228 0.0267338
0.556588 0.176928 0.0304723
0.594659 0.180011 0.0341039
0.628443 0.183154 0.0371557
0.657557 0.186282 0.0394903
0.683711 0.189609 0.0414435
0.707851 0.193118 0.0430762
0.730755 0.197131 0.0445563
0.752514 0.201541 0.0458228
0.773999 0.206546 0.0470436
0.795621 0.212207 0.0482643
0.817334 0.218341 0.0495613
0.838727 0.22536 0.0509804
0.854627 0.231083 0.0514534
0.869841 0.237171 0.0517891
0.884794 0.244877 0.0525368
0.0164034 0.167285 0.0192874
0.0275425 0.167452 0.0193027
0.0388952 0.16762 0.0194553
0.0526436 0.167758 0.0196231
0.0674907 0.16788 0.0198672
0.083711 0.168658 0.0203403
0.102998 0.170169 0.0213321
0.12929 0.172473 0.0231174
0.160067 0.173373 0.0228275
0.190204 0.169818 0.0196231
0.223056 0.170214 0.0184482
0.25803 0.171664 0.0160067
0.295247 0.173465 0.0127871
0.338628 0.175982 0.0142824
0.382757 0.180285 0.0170138
0.429236 0.185382 0.0201877
0.475547 0.190311 0.0235752
0.520088 0.194903 0.0270542
0.560113 0.198123 0.0307012
0.599039 0.201495 0.0344549
0.63328 0.204746 0.0375372
0.662776 0.207858 0.0399176
0.689326 0.211154 0.0419165
0.713726 0.214481 0.043595
0.73698 0.218433 0.0450752
0.759014 0.222858 0.0463722
0.781048 0.227817 0.0476539
0.803082 0.233463 0.0489204
0.824964 0.239567 0.0502937
0.844205 0.246296 0.0513771
0.859739 0.252064 0.0516976
0.874998 0.258412 0.0520943
0.889876 0.265751 0.0529641
0.0170291 0.186603 0.0208438
0.0281376 0.186862 0.0208743
0.0394903 0.187091 0.0210422
0.0524453 0.187274 0.0212253
0.066865 0.187488 0.0214237
0.082536 0.187991 0.0217441
0.0995651 0.189273 0.022446
0.121447 0.191455 0.0238193
0.152163 0.194461 0.0264134
0.185473 0.194614 0.0242466
0.2159 0.190448 0.0212558
0.253468 0.190997 0.0178988
0.292088 0.192508 0.0141146
0.336492 0.19498 0.0144961
0.382742 0.199207 0.0174411
0.431601 0.204639 0.0209354
0.478538 0.209964 0.0244297
0.523873 0.215137 0.0279088
0.564736 0.219272 0.0311742
0.603937 0.223575 0.0349126
0.638117 0.227604 0.037995
0.668009 0.230808 0.0404517
0.694728 0.234104 0.0424506
0.719142 0.23743 0.0441444
0.742733 0.241321 0.0456397
0.765209 0.245686 0.047013
0.787579 0.250629 0.0483711
0.810147 0.256306 0.0497749
0.831617 0.262577 0.0510872
0.848844 0.268681 0.0516976
0.864775 0.274586 0.0520638
0.880034 0.281224 0.0525826
0.895079 0.287922 0.0531319
0.0176852 0.206531 0.0227359
0.0288396 0.20679 0.0227359
0.040177 0.207111 0.022858
0.0524147 0.207279 0.0229648
0.0662547 0.207523 0.0231327
0.08159 0.208057 0.0233616
0.0979171 0.209018 0.0239109
0.116136 0.211002 0.0249332
0.142733 0.213947 0.0268711
0.176181 0.217548 0.0291905
0.211322 0.215946 0.0261692
0.246708 0.212573 0.0221408
0.28835 0.212665 0.0162661
0.334752 0.215412 0.0148165
0.383352 0.219883 0.0179751
0.434241 0.225147 0.0217136
0.483604 0.230915 0.0255589
0.529046 0.236286 0.0290074
0.570413 0.24126 0.0321355
0.610117 0.246235 0.035462
0.64419 0.25069 0.038529
0.673716 0.254627 0.0410468
0.700206 0.258442 0.0430915
0.725017 0.262181 0.0448463
0.748653 0.266407 0.0464027
0.771374 0.270787 0.0478065
0.794339 0.276005 0.0492409
0.817243 0.281621 0.050721
0.836896 0.287404 0.051667
0.853376 0.293263 0.0520943
0.869474 0.299214 0.0525673
0.884886 0.305547 0.0530556
0.900191 0.31194 0.0535134
0.0183261 0.227207 0.0252079
0.0294957 0.227497 0.0251316
0.0408484 0.227817 0.0252232
0.0525216 0.227909 0.0252537
0.0653239 0.228275 0.0253147
0.0803388 0.228702 0.0253605
0.0963302 0.22948 0.0256657
0.11339 0.231327 0.0264591
0.134615 0.234272 0.0276799
0.16492 0.238437 0.0299229
0.202289 0.243641 0.0330663
0.241123 0.239322 0.027924
0.282811 0.236744 0.0212711
0.333471 0.23856 0.0155184
0.38497 0.243091 0.018677
0.438254 0.248295 0.0226902
0.489006 0.253925 0.026688
0.535958 0.259556 0.0303807
0.578073 0.264714 0.0335393
0.617273 0.270405 0.0363317
0.651164 0.27541 0.0391089
0.680858 0.279377 0.0416419
0.707195 0.283314 0.0437171
0.731975 0.287785 0.0455329
0.755245 0.292271 0.0471199
0.778134 0.297185 0.0486915
0.801297 0.303075 0.0502632
0.823301 0.309148 0.0516213
0.841001 0.314595 0.0522316
0.857466 0.32047 0.0527657
0.873808 0.326482 0.0533455
0.889326 0.332662 0.0538338
0.904479 0.337896 0.0542306
0.0189822 0.249042 0.0285344
0.0301061 0.249332 0.0284733
0.0415198 0.249882 0.0285191
0.0528573 0.249973 0.0284428
0.0648661 0.250507 0.0284276
0.0792859 0.251072 0.0281529
0.0949874 0.251591 0.0278325
0.11162 0.252995 0.0281529
0.13022 0.256214 0.0290684
0.155184 0.260563 0.0303502
0.189288 0.266438 0.0328679
0.232578 0.273167 0.0352331
0.277363 0.266239 0.0287938
0.330571 0.266011 0.0197147
0.387304 0.270054 0.0195468
0.443168 0.275013 0.0238346
0.496025 0.280674 0.0281224
0.544503 0.286259 0.0319677
0.587762 0.291844 0.0352636
0.626841 0.297185 0.0380102
0.660365 0.302388 0.0402075
0.689632 0.307179 0.0423896
0.715587 0.31136 0.0444648
0.740185 0.315724 0.0463417
0.763516 0.319997 0.0480201
0.786465 0.324941 0.0496529
0.809293 0.330617 0.0512093
0.828687 0.336522 0.0522164
0.845335 0.342336 0.052781
0.861921 0.348302 0.0534676
0.878157 0.354437 0.0540932
0.893996 0.361135 0.0546883
0.908949 0.364538 0.0549477
0.0197757 0.272984 0.0330053
0.030869 0.273106 0.0327764
0.0421912 0.273655 0.0326696
0.0535134 0.273869 0.0325322
0.0649882 0.274327 0.0323186
0.0783856 0.275029 0.0319829
0.0938277 0.275914 0.0313878
0.110246 0.27715 0.0308995
0.127962 0.279957 0.0309911
0.14844 0.284459 0.0317082
0.177462 0.290852 0.0328527
0.21767 0.299275 0.0357519
0.271931 0.307256 0.0366979
0.324651 0.296544 0.0286412
0.388083 0.300893 0.0237583
0.448585 0.305592 0.0255894
0.503883 0.311406 0.0297398
0.55346 0.317311 0.0337224
0.598413 0.323003 0.0371252
0.638254 0.328908 0.0399481
0.671107 0.334112 0.0420844
0.70016 0.338293 0.0438392
0.725994 0.342473 0.0454719
0.750378 0.346914 0.0472114
0.77319 0.351415 0.0489204
0.796033 0.356466 0.0506294
0.817517 0.361883 0.0521096
0.834119 0.366995 0.0527657
0.850721 0.372351 0.0534371
0.867018 0.378073 0.0541085
0.883162 0.384253 0.0547951
0.899062 0.388876 0.0552071
0.913741 0.391638 0.0554055
0.0204318 0.298405 0.0383307
0.0314794 0.298543 0.0380255
0.0427558 0.299107 0.0378271
0.0540169 0.299397 0.0375677
0.0653239 0.299962 0.0372473
0.0778668 0.300832 0.0368658
0.0927138 0.301762 0.0361791
0.10898 0.303212 0.0353704
0.126223 0.305592 0.0345312
0.145434 0.310323 0.0340734
0.168429 0.316884 0.0337224
0.203357 0.32578 0.0352636
0.256657 0.33817 0.0407263
0.326085 0.343389 0.03888
0.383825 0.33489 0.0310521
0.452308 0.340078 0.0317998
0.51281 0.34609 0.0331579
0.563348 0.35169 0.0357214
0.609506 0.357763 0.0391699
0.648905 0.364034 0.0419013
0.682521 0.368826 0.0440375
0.712062 0.373434 0.0458686
0.737819 0.377951 0.0475013
0.762264 0.382681 0.0490883
0.78497 0.386297 0.0504921
0.807111 0.390387 0.0519417
0.824186 0.394598 0.0527047
0.840528 0.399313 0.0534676
0.856458 0.404242 0.0542
0.872221 0.409949 0.0549477
0.888289 0.415198 0.0556344
0.904097 0.41796 0.0558938
0.91841 0.419944 0.0560616
0.0200198 0.32639 0.0438087
0.0310369 0.326574 0.0434577
0.042298 0.32723 0.0432441
0.0535439 0.327672 0.0430152
0.0648051 0.328405 0.0427558
0.0767987 0.329503 0.0423133
0.0908522 0.330694 0.0415045
0.107118 0.332036 0.0401007
0.124376 0.333974 0.038468
0.143709 0.338491 0.0371862
0.164736 0.345052 0.0362097
0.192111 0.353536 0.0363012
0.24036 0.366735 0.041062
0.314458 0.38529 0.0509957
0.387701 0.381201 0.0402228
0.452903 0.378424 0.0392157
0.519829 0.384421 0.0413062
0.573129 0.390265 0.0417945
0.620951 0.396719 0.0422217
0.660945 0.403403 0.0441444
0.69456 0.408591 0.0462654
0.724102 0.41268 0.0480812
0.750622 0.416571 0.0497292
0.775174 0.420279 0.0513313
0.79733 0.423728 0.0527352
0.814908 0.427253 0.0535592
0.831113 0.430091 0.0541543
0.846967 0.433539 0.0548409
0.862638 0.437018 0.0555123
0.878431 0.441611 0.0562448
0.894087 0.444526 0.056672
0.909728 0.447196 0.0569162
0.924086 0.449058 0.057145
0.0200656 0.355596 0.0494392
0.0310826 0.35581 0.0490425
0.0423285 0.356542 0.0488441
0.0536355 0.357229 0.0486458
0.0649577 0.358007 0.0483558
0.0766461 0.359213 0.0478065
0.0898299 0.360388 0.0468147
0.105943 0.362249 0.0453346
0.123049 0.364538 0.0433661
0.142275 0.367987 0.0411383
0.16321 0.374578 0.0400702
0.187762 0.38352 0.0396887
0.226474 0.396124 0.0429389
0.296162 0.417197 0.0518044
0.38175 0.435981 0.0600748
0.454658 0.421714 0.0456245
0.523278 0.427146 0.0500191
0.58233 0.433173 0.051194
0.632731 0.439231 0.0504768
0.673106 0.445518 0.0500343
0.707607 0.450248 0.0500496
0.738033 0.453956 0.0509957
0.764385 0.457115 0.0525216
0.787884 0.460121 0.0540322
0.805783 0.462318 0.0547799
0.8224 0.464714 0.0554513
0.8383 0.466896 0.0560922
0.853697 0.469429 0.056733
0.86894 0.472282 0.0574044
0.884306 0.475044 0.0579232
0.89958 0.475975 0.0581216
0.915404 0.477943 0.0583047
0.930098 0.479515 0.0584573
0.0211032 0.386419 0.0559548
0.0320897 0.386679 0.0555276
0.0434424 0.387564 0.0552224
0.0547646 0.388403 0.0549325
0.0661479 0.389319 0.054612
0.0777295 0.390661 0.0540169
0.0902266 0.392004 0.0529488
0.106142 0.393988 0.0515297
0.123095 0.396368 0.0496376
0.14229 0.399847 0.0473793
0.163134 0.405844 0.0456855
0.185657 0.414206 0.04448
0.215503 0.426474 0.0457313
0.276051 0.447105 0.0524605
0.368505 0.474525 0.0650492
0.458351 0.484047 0.060502
0.525429 0.468833 0.0566415
0.587579 0.476692 0.0598764
0.640772 0.481971 0.0595407
0.683726 0.487221 0.0584878
0.719326 0.492256 0.0577859
0.7505 0.496071 0.0574655
0.777264 0.498939 0.0575723
0.796994 0.500862 0.0575265
0.81384 0.502403 0.0575418
0.830259 0.503883 0.0578317
0.845914 0.504646 0.0581979
0.860945 0.505699 0.0586709
0.875776 0.507012 0.0591897
0.890745 0.5066 0.0592508
0.905913 0.50631 0.0593423
0.921401 0.507607 0.0594949
0.936309 0.508858 0.0596628
0.0237278 0.419638 0.0635691
0.034699 0.420005 0.0632486
0.046067 0.420981 0.0629587
0.0574044 0.421973 0.0627298
0.0688334 0.423133 0.0624399
0.080415 0.424689 0.0621042
0.092546 0.426444 0.0615244
0.107683 0.428443 0.0602121
0.124224 0.430716 0.0580606
0.14313 0.434348 0.0555123
0.163363 0.439658 0.052781
0.185534 0.447852 0.0504921
0.210407 0.459739 0.0497292
0.251606 0.477562 0.0540475
0.343603 0.50811 0.0652476
0.45005 0.53492 0.0790723
0.533318 0.529458 0.0653849
0.590768 0.521492 0.0679026
0.646967 0.529152 0.069688
0.693507 0.53492 0.0692149
0.730831 0.53846 0.0683299
0.763027 0.541878 0.0676585
0.786999 0.543496 0.0665293
0.805661 0.54432 0.0654307
0.822629 0.544671 0.0646067
0.838819 0.544549 0.0638743
0.854185 0.54403 0.0632486
0.868757 0.543709 0.0629587
0.883024 0.541848 0.062501
0.897536 0.539986 0.0620737
0.912291 0.538796 0.0617685
0.92726 0.539178 0.0616922
0.942092 0.539376 0.0615702
0.0270542 0.456489 0.0726635
0.0380713 0.456916 0.072343
0.0494087 0.457832 0.0720531
0.0607919 0.459037 0.07187
0.0722515 0.46041 0.0716869
0.0838483 0.461997 0.0711223
0.0959487 0.463462 0.0701152
0.110048 0.465217 0.0686656
0.126284 0.467369 0.066453
0.144549 0.470893 0.0635386
0.163775 0.474952 0.0603952
0.185321 0.482444 0.0571298
0.209506 0.493919 0.0547341
0.242634 0.509331 0.0572061
0.316762 0.536599 0.0654002
0.437263 0.570291 0.0812238
0.525292 0.58587 0.0855421
0.591852 0.571221 0.0746166
0.647562 0.56997 0.0771649
0.696361 0.577035 0.0779736
0.736706 0.580697 0.077348
0.770657 0.582834 0.0764782
0.792859 0.583963 0.0750439
0.812039 0.584878 0.0739147
0.829557 0.585138 0.0729229
0.845975 0.585077 0.0721447
0.861204 0.584558 0.0713664
0.875837 0.58204 0.0704356
0.890043 0.578851 0.0694133
0.904387 0.576349 0.0686046
0.918944 0.574304 0.0678569
0.9337 0.573892 0.0674144
0.948409 0.573098 0.0670787
0.0304265 0.492897 0.0813153
0.0414282 0.493294 0.0809796
0.0527504 0.494347 0.0806592
0.0641489 0.495689 0.080415
0.0756542 0.497261 0.0801862
0.0872511 0.498863 0.0797284
0.0991073 0.500267 0.0788891
0.112444 0.501778 0.0773632
0.128374 0.50367 0.0751965
0.145708 0.506615 0.0722972
0.164141 0.51014 0.0690471
0.184802 0.515801 0.0643626
0.208362 0.526192 0.0606394
0.238239 0.539757 0.0604257
0.297032 0.563607 0.0667887
0.416419 0.598611 0.0815137
0.516976 0.621988 0.0943008
0.589212 0.62536 0.0821851
0.646448 0.610147 0.0826581
0.696971 0.614984 0.0848859
0.739559 0.61941 0.0851606
0.774792 0.621836 0.0847944
0.796933 0.620966 0.0827039
0.816815 0.621836 0.0813764
0.834958 0.62208 0.0802777
0.85156 0.622187 0.0794537
0.866972 0.620661 0.0785687
0.881743 0.617426 0.0774701
0.896239 0.614679 0.0765698
0.910689 0.611917 0.0756085
0.925002 0.609552 0.0747539
0.939605 0.608545 0.0745556
0.954131 0.607217 0.0745556
0.0337987 0.528969 0.0884871
0.0448157 0.529656 0.0882429
0.0561074 0.531044 0.0880598
0.0675212 0.532723 0.0879835
0.078996 0.534401 0.0878462
0.0906081 0.535866 0.0873884
0.102663 0.53727 0.0866865
0.116274 0.538994 0.0855573
0.13196 0.541207 0.0835431
0.148974 0.543877 0.0804913
0.167056 0.547097 0.0764172
0.186892 0.551415 0.0715343
0.209857 0.561151 0.0657816
0.23798 0.573404 0.0641337
0.288334 0.594064 0.0694438
0.400443 0.627436 0.0822003
0.511742 0.654505 0.0971389
0.587304 0.66949 0.10544
0.648753 0.661143 0.0896468
0.696269 0.650889 0.0902113
0.740887 0.654826 0.0919814
0.776654 0.657298 0.0921492
0.799985 0.656947 0.090547
0.820615 0.656443 0.0892042
0.839078 0.656413 0.0878309
0.85626 0.656748 0.0867475
0.87216 0.654185 0.0854505
0.887175 0.651255 0.0842756
0.901671 0.648844 0.0835279
0.915938 0.646708 0.082948
0.929976 0.644388 0.0823377
0.94432 0.642222 0.0820325
0.958724 0.640131 0.0820325
0.0369268 0.563668 0.095552
0.0479286 0.564157 0.0952316
0.0591897 0.565301 0.0949569
0.0705577 0.566705 0.0947585
0.0820172 0.567971 0.0945449
0.0935531 0.569039 0.0941176
0.105425 0.570291 0.0933394
0.118471 0.57174 0.0920729
0.133822 0.573541 0.090074
0.150469 0.576013 0.0868544
0.168078 0.579156 0.0833448
0.187274 0.582513 0.0781262
0.208988 0.589563 0.0714427
0.235416 0.601312 0.0677806
0.276844 0.618296 0.0710613
0.379461 0.649546 0.082002
0.494972 0.67808 0.0974746
0.57879 0.695903 0.108446
0.642161 0.703944 0.104295
0.691524 0.688472 0.0944839
0.737667 0.685359 0.0958724
0.775494 0.687419 0.096849
0.800198 0.687877 0.0958572
0.821881 0.687694 0.0948501
0.841031 0.686854 0.0934615
0.858747 0.686015 0.0922408
0.875166 0.683742 0.0910964
0.890379 0.681102 0.0899519
0.905119 0.678996 0.0892805
0.919539 0.676875 0.0887312
0.933532 0.674998 0.0884718
0.947692 0.673381 0.0885481
0.961624 0.671473 0.0888533
0.0398413 0.593835 0.100145
0.0507668 0.594232 0.0999008
0.0619669 0.59527 0.0996719
0.0732586 0.596445 0.0994736
0.0846418 0.597589 0.0992447
0.0961624 0.598749 0.0988327
0.107912 0.600046 0.0982376
0.120531 0.601434 0.097261
0.135714 0.603235 0.0954147
0.152056 0.605432 0.0926375
0.169329 0.607752 0.0884565
0.18822 0.610849 0.0829328
0.20943 0.617182 0.0760662
0.235416 0.62797 0.0707103
0.272557 0.643244 0.0731365
0.364202 0.671763 0.0823224
0.478965 0.699626 0.0974441
0.57142 0.719814 0.110475
0.636545 0.732174 0.119463
0.687602 0.728328 0.0993362
0.730571 0.714946 0.0987411
0.772168 0.714336 0.100069
0.79826 0.714534 0.0995193
0.82089 0.714595 0.0987564
0.841215 0.714443 0.0976577
0.859556 0.712963 0.0964828
0.876326 0.709926 0.0952773
0.891829 0.707881 0.094377
0.906737 0.706188 0.0938582
0.921386 0.704234 0.09337
0.935561 0.702739 0.0933852
0.949798 0.701518 0.0937667
0.963577 0.699565 0.0942245
0.04271 0.622202 0.10454
0.0534829 0.622507 0.104311
0.0644541 0.623346 0.104143
0.075639 0.624338 0.103944
0.0870069 0.62562 0.103746
0.0985275 0.62678 0.103243
0.110262 0.628107 0.10248
0.122591 0.629389 0.101381
0.137469 0.630945 0.0994583
0.153674 0.632853 0.0961166
0.17055 0.63476 0.0924392
0.189151 0.638117 0.0875868
0.209644 0.643 0.0803845
0.234897 0.653071 0.0741588
0.267994 0.665644 0.0747387
0.346685 0.691112 0.0824598
0.46099 0.718654 0.0968185
0.559411 0.740108 0.111254
0.628183 0.752972 0.12105
0.684352 0.761242 0.123659
0.72491 0.749126 0.10251
0.766537 0.741436 0.102693
0.795651 0.740093 0.102525
0.819257 0.739605 0.101762
0.840574 0.740337 0.101183
0.859525 0.739528 0.100404
0.876585 0.736156 0.0992447
0.892348 0.732876 0.0981308
0.907469 0.731014 0.0976272
0.922103 0.72932 0.0972152
