LUT/Pure Cinematic.cube
LUT_3D_SIZE 16
0.014817 0.016037 0.015900
0.043950 0.016387 0.014782
0.070294 0.017643 0.014506
0.106691 0.020606 0.014319
0.153383 0.025810 0.014723
0.208788 0.031306 0.014849
0.274471 0.036043 0.011519
0.354085 0.039041 0.014019
0.443265 0.046229 0.021710
0.528698 0.053174 0.029528
0.605019 0.062286 0.036241
0.668116 0.076802 0.041494
0.723046 0.092001 0.045334
0.773003 0.107303 0.048880
0.820777 0.123348 0.052342
0.864847 0.140693 0.056727
0.012744 0.040311 0.013915
0.040171 0.039889 0.012878
0.068094 0.038860 0.013039
0.105618 0.041807 0.013940
0.154246 0.047583 0.015138
0.211632 0.053280 0.014948
0.278104 0.058392 0.011326
0.358140 0.063112 0.014136
0.447587 0.070735 0.021820
0.533834 0.077942 0.029723
0.609696 0.089857 0.036495
0.672857 0.104473 0.041691
0.727295 0.118928 0.045459
0.776793 0.134734 0.049033
0.824900 0.150438 0.052346
0.866455 0.166078 0.056036
0.012469 0.062379 0.013558
0.036256 0.062573 0.013345
0.064670 0.062323 0.012917
0.103350 0.064411 0.013644
0.153197 0.071309 0.015558
0.211783 0.078599 0.015986
0.281453 0.084067 0.011588
0.367262 0.088274 0.014579
0.459243 0.096502 0.022521
0.545895 0.105235 0.030538
0.620289 0.117085 0.037136
0.681672 0.131743 0.042021
0.734490 0.145806 0.045576
0.783573 0.161363 0.048959
0.831398 0.177255 0.052081
0.870295 0.192904 0.054855
0.013059 0.090769 0.014307
0.034357 0.090978 0.014397
0.060911 0.091586 0.014950
0.096499 0.090867 0.014401
0.147071 0.096441 0.015654
0.205871 0.105150 0.016462
0.276077 0.113365 0.012631
0.365516 0.120170 0.014759
0.465471 0.129136 0.022361
0.558035 0.138897 0.031069
0.635371 0.148858 0.037890
0.695793 0.160366 0.042397
0.747517 0.173427 0.045717
0.796427 0.189149 0.048662
0.843091 0.205647 0.051658
0.877774 0.221067 0.053014
0.014583 0.125457 0.016376
0.034986 0.125765 0.016564
0.060321 0.126272 0.017019
0.092701 0.127788 0.018269
0.137548 0.126722 0.017094
0.197833 0.134551 0.017450
0.269001 0.143978 0.013761
0.360408 0.155007 0.015162
0.465489 0.168436 0.022296
0.564844 0.179536 0.031251
0.647136 0.190203 0.038655
0.709246 0.200572 0.043213
0.762235 0.212466 0.046458
0.812667 0.226499 0.049407
0.855052 0.241353 0.051526
0.887356 0.255937 0.052757
0.016322 0.165174 0.019140
0.036352 0.165465 0.019274
0.060963 0.165722 0.019615
0.090451 0.167097 0.020551
0.133424 0.170381 0.022865
0.187545 0.168027 0.019773
0.261478 0.177115 0.016099
0.357640 0.189381 0.015691
0.469593 0.206745 0.023693
0.573554 0.222731 0.032053
0.657818 0.236583 0.039641
0.721047 0.248269 0.044406
0.775769 0.261069 0.047891
0.827003 0.275662 0.051026
0.865559 0.290040 0.052334
0.898336 0.303877 0.053381
0.017765 0.209106 0.023044
0.038605 0.209643 0.023135
0.062136 0.210032 0.023359
0.090595 0.211156 0.023902
0.126591 0.214760 0.025893
0.184371 0.219946 0.028671
0.251200 0.215875 0.022117
0.356490 0.229584 0.016597
0.478981 0.249718 0.025802
0.587567 0.269667 0.034359
0.672204 0.287659 0.040949
0.735633 0.302470 0.045910
0.790872 0.317272 0.049818
0.837663 0.333003 0.052417
0.874901 0.347795 0.053850
0.907906 0.359178 0.054802
0.019337 0.259747 0.030533
0.040920 0.260468 0.030377
0.063059 0.261078 0.030184
0.090771 0.262304 0.029527
0.123453 0.265870 0.029755
0.171430 0.274942 0.032109
0.251663 0.284703 0.033817
0.354629 0.281531 0.022688
0.492550 0.305439 0.028716
0.608483 0.329896 0.038041
0.693468 0.351315 0.043978
0.757054 0.368940 0.048328
0.810268 0.383950 0.051932
0.849493 0.398122 0.053819
0.885581 0.412173 0.055474
0.917962 0.418075 0.056017
0.020095 0.321253 0.042803
0.042123 0.322053 0.042255
0.064381 0.323152 0.041757
0.090216 0.325305 0.040581
0.123132 0.328579 0.037882
0.162965 0.339130 0.035852
0.236577 0.359694 0.040327
0.375754 0.373482 0.040173
0.506473 0.376284 0.039452
0.631457 0.405957 0.044057
0.718800 0.430891 0.048918
0.783484 0.448337 0.053196
0.826518 0.460820 0.055419
0.862975 0.470878 0.057128
0.897736 0.477638 0.058166
0.930366 0.481458 0.058536
0.021649 0.393323 0.057537
0.044250 0.394530 0.056824
0.067241 0.396411 0.056214
0.091804 0.399300 0.054634
0.125101 0.403832 0.051174
0.165783 0.413837 0.046994
0.222320 0.436181 0.047430
0.378502 0.483638 0.064972
0.538385 0.482279 0.059030
0.651142 0.492891 0.061456
0.744574 0.519325 0.063164
0.803350 0.535363 0.063832
0.843568 0.543861 0.063602
0.878308 0.546920 0.063505
0.911425 0.545777 0.062988
0.943209 0.546130 0.062675
0.029079 0.478347 0.077858
0.052097 0.479831 0.077207
0.075683 0.482725 0.076730
0.100297 0.485847 0.075114
0.131781 0.489924 0.071006
0.170297 0.497994 0.064355
0.220017 0.518432 0.058588
0.355265 0.567300 0.072605
0.553816 0.605719 0.085225
0.673757 0.597178 0.081358
0.759264 0.605326 0.081698
0.815704 0.617521 0.080547
0.856906 0.625035 0.079871
0.891926 0.623943 0.078581
0.924554 0.621224 0.077333
0.955520 0.618227 0.077053
0.036839 0.562693 0.095353
0.060108 0.564463 0.094746
0.083970 0.567218 0.094281
0.108811 0.569749 0.092818
0.139657 0.573508 0.088754
0.176540 0.579750 0.080848
0.223046 0.594999 0.069373
0.340898 0.637009 0.077825
0.554496 0.689953 0.105163
0.681528 0.690564 0.096319
0.771142 0.686332 0.096606
0.821237 0.686821 0.094720
0.864130 0.690845 0.092756
0.899969 0.689668 0.091188
0.932414 0.687904 0.090733
0.962401 0.684660 0.091367
0.043598 0.630540 0.105447
0.066521 0.631818 0.105033
0.090280 0.634252 0.104607
0.115018 0.636928 0.103202
0.145136 0.640131 0.099229
0.181252 0.644922 0.090965
0.226535 0.657580 0.077205
0.327223 0.692363 0.081165
0.544323 0.743928 0.109698
0.682439 0.768717 0.126231
0.767802 0.751132 0.103747
0.823154 0.747653 0.102615
0.864698 0.746417 0.101157
0.901604 0.743862 0.099661
0.934701 0.742661 0.099516
0.965407 0.741117 0.100940
0.049718 0.690406 0.112845
0.072670 0.691597 0.112424
0.095953 0.694181 0.112273
0.120743 0.697157 0.111106
0.151409 0.700590 0.106923
0.187866 0.705615 0.098103
0.233169 0.716827 0.083002
0.327793 0.746963 0.085547
0.536923 0.792640 0.113259
0.679089 0.821582 0.137574
0.764858 0.821561 0.130673
0.823386 0.805739 0.110055
0.866219 0.802201 0.108867
0.901668 0.797326 0.107864
0.935407 0.793861 0.107453
0.966798 0.790718 0.108326
0.054864 0.744089 0.119290
0.077896 0.745048 0.118816
0.101243 0.747468 0.118701
0.125655 0.750537 0.117603
0.156631 0.754361 0.112792
0.193843 0.759433 0.103103
0.240303 0.769398 0.087361
0.329370 0.795578 0.089609
0.524849 0.836310 0.115884
0.668899 0.868711 0.142941
0.765407 0.881749 0.158426
0.825989 0.870312 0.134759
0.866172 0.854650 0.115840
0.902561 0.849913 0.115127
0.935629 0.844876 0.114617
0.967264 0.840137 0.114780
0.059353 0.793195 0.126537
0.082422 0.794136 0.125825
0.105739 0.796274 0.125518
0.130132 0.799627 0.124478
0.162044 0.804012 0.118679
0.199944 0.809081 0.107782
0.248202 0.817541 0.092616
0.336216 0.840131 0.094523
0.510751 0.876830 0.118094
0.649086 0.907231 0.143840
0.751035 0.918474 0.160615
0.821982 0.921625 0.167950
0.867704 0.917041 0.157925
0.899921 0.901895 0.124665
0.934273 0.895194 0.121795
0.967360 0.889232 0.121092
0.014797 0.018062 0.045707
0.042975 0.017153 0.044320
0.069977 0.017746 0.041362
0.108380 0.020664 0.040005
0.157077 0.025513 0.038684
0.213381 0.031034 0.037508
0.278882 0.036055 0.033335
0.358394 0.039210 0.035650
0.447307 0.046540 0.043468
0.532070 0.051902 0.051572
0.607595 0.062942 0.058675
0.669922 0.077321 0.064209
0.724464 0.091882 0.068238
0.773775 0.107150 0.072126
0.821119 0.123202 0.075882
0.864539 0.139706 0.080358
0.012041 0.040953 0.041978
0.038573 0.040391 0.040115
0.066996 0.040490 0.038866
0.105005 0.043297 0.037838
0.153353 0.048345 0.036705
0.209463 0.054123 0.035046
0.275625 0.059077 0.030287
0.356210 0.062219 0.032309
0.446051 0.068889 0.040029
0.532135 0.075275 0.047921
0.609396 0.083168 0.054685
0.672497 0.097542 0.059868
0.726862 0.112437 0.063659
0.776330 0.128547 0.067361
0.823868 0.144423 0.070950
0.865648 0.159947 0.074900
0.011751 0.063321 0.038832
0.036061 0.063147 0.038049
0.063550 0.062750 0.036578
0.102788 0.065291 0.036183
0.152959 0.071730 0.036711
0.210942 0.078647 0.035656
0.279047 0.084448 0.030175
0.362549 0.089009 0.032487
0.453345 0.096492 0.040252
0.540309 0.104278 0.048298
0.616682 0.113874 0.055031
0.679122 0.128854 0.060059
0.732829 0.143525 0.063734
0.782313 0.159555 0.067292
0.830079 0.175422 0.070645
0.869220 0.190645 0.073689
0.012628 0.091948 0.037959
0.034294 0.091787 0.037097
0.059978 0.091709 0.036129
0.095781 0.091130 0.035091
0.147368 0.096635 0.035338
0.206654 0.105191 0.035567
0.277178 0.112764 0.031187
0.366404 0.118563 0.032904
0.464156 0.127469 0.040420
0.554652 0.136814 0.048966
0.631387 0.146685 0.055752
0.692604 0.158430 0.060364
0.745113 0.171979 0.063806
0.794640 0.187811 0.066829
0.841817 0.204486 0.069957
0.876778 0.219393 0.071454
0.014312 0.126576 0.038754
0.034486 0.126564 0.037394
0.059304 0.126583 0.037017
0.091242 0.127598 0.037197
0.137139 0.126700 0.035720
0.198259 0.134396 0.035821
0.269626 0.143629 0.031969
0.361277 0.154063 0.033235
0.466237 0.166512 0.040386
0.564571 0.177195 0.049360
0.646022 0.187758 0.056690
0.707820 0.198257 0.061230
0.760781 0.210177 0.064463
0.811091 0.224323 0.067391
0.854236 0.239159 0.069635
0.886463 0.253672 0.070998
0.016034 0.166303 0.040700
0.035130 0.166246 0.038802
0.059777 0.166232 0.038848
0.088935 0.166892 0.039185
0.131611 0.169804 0.040778
0.187186 0.167671 0.037890
0.261367 0.176721 0.034361
0.357865 0.188786 0.033729
0.469482 0.205886 0.041693
0.573025 0.221504 0.050083
0.657368 0.234614 0.057702
0.720561 0.245959 0.062429
0.775052 0.258515 0.065859
0.826284 0.273161 0.069010
0.865179 0.287374 0.070358
0.897573 0.300857 0.071424
0.017340 0.210547 0.045255
0.036381 0.210516 0.042587
0.060535 0.210559 0.042650
0.088931 0.211055 0.042790
0.124474 0.213828 0.043782
0.182753 0.219110 0.046682
0.250677 0.215468 0.040273
0.356262 0.229024 0.034636
0.478608 0.248923 0.043763
0.587267 0.268817 0.052349
0.671782 0.286578 0.059036
0.735141 0.301216 0.063976
0.790313 0.315773 0.067845
0.837883 0.331207 0.070521
0.874983 0.345703 0.071880
0.907493 0.357229 0.072896
0.018694 0.261128 0.053283
0.037800 0.261214 0.049798
0.061619 0.261610 0.049375
0.089361 0.262629 0.048680
0.122238 0.265612 0.048330
0.170249 0.274382 0.050071
0.250704 0.284465 0.052093
0.354783 0.281592 0.040747
0.493248 0.305549 0.046794
0.609136 0.329685 0.056100
0.694024 0.350806 0.062036
0.757325 0.368048 0.066379
0.810709 0.383070 0.070032
0.850097 0.397117 0.071942
0.886161 0.411185 0.073592
0.918274 0.417329 0.074123
0.019191 0.322385 0.066158
0.038177 0.322678 0.061913
0.062879 0.323810 0.061050
0.088961 0.325765 0.059823
0.122050 0.328876 0.056924
0.162197 0.338689 0.054173
0.235082 0.359133 0.058129
0.374772 0.373780 0.058526
0.507038 0.376605 0.057466
0.632390 0.406200 0.062048
0.719554 0.430649 0.066941
0.784045 0.447751 0.071226
0.827362 0.460239 0.073500
0.863785 0.470386 0.075240
0.898513 0.477304 0.076294
0.930885 0.481065 0.076668
0.020760 0.394443 0.081405
0.039768 0.395124 0.076708
0.065541 0.397124 0.075691
0.090485 0.399865 0.074107
0.123827 0.404151 0.070580
0.164559 0.413239 0.065613
0.220761 0.435303 0.065200
0.376065 0.483204 0.082913
0.538402 0.482953 0.077159
0.652104 0.493409 0.079838
0.745378 0.519471 0.081501
0.804230 0.535076 0.081843
0.844331 0.543411 0.081470
0.879091 0.546684 0.081428
0.912140 0.545564 0.080973
0.943731 0.545887 0.081172
0.028258 0.479800 0.102182
0.047250 0.480515 0.097067
0.073868 0.483608 0.096185
0.099070 0.486783 0.094558
0.130583 0.490385 0.090302
0.169168 0.497850 0.083411
0.218887 0.517402 0.076520
0.352187 0.566151 0.090185
0.552762 0.606582 0.104136
0.673966 0.598046 0.100323
0.760056 0.605671 0.101092
0.816570 0.617801 0.099678
0.857675 0.625155 0.098465
0.892632 0.624229 0.097004
0.925229 0.621346 0.095807
0.956181 0.618497 0.095667
0.036557 0.564416 0.119619
0.055137 0.565146 0.114470
0.082117 0.568143 0.113607
0.107550 0.570509 0.112034
0.138563 0.574018 0.108054
0.175578 0.579911 0.100076
0.221630 0.593475 0.087739
0.336930 0.635237 0.095257
0.552449 0.689597 0.122882
0.681015 0.691787 0.115671
0.771687 0.686745 0.115690
0.821940 0.687221 0.113652
0.864741 0.691320 0.111537
0.900506 0.690275 0.109828
0.932906 0.688361 0.109199
0.962863 0.685122 0.109731
0.043882 0.632310 0.129759
0.062046 0.632684 0.124435
0.088473 0.634988 0.123802
0.113832 0.637496 0.122293
0.144087 0.640431 0.118422
0.180298 0.644929 0.110178
0.225026 0.656357 0.095889
0.323244 0.690503 0.098609
0.541195 0.743134 0.127079
0.681522 0.769008 0.145766
0.767334 0.751859 0.122335
0.823672 0.748020 0.121094
0.865192 0.746774 0.119528
0.902025 0.744486 0.117943
0.935093 0.743310 0.117776
0.965755 0.741721 0.119222
0.050004 0.692162 0.137329
0.068152 0.692471 0.131841
0.094435 0.694979 0.131352
0.119503 0.697570 0.130172
0.150338 0.700779 0.126069
0.186898 0.705500 0.117259
0.231448 0.715555 0.101755
0.324389 0.745354 0.103040
0.533909 0.791858 0.130574
0.677924 0.821371 0.155133
0.764303 0.822111 0.149857
0.823848 0.806137 0.128263
0.866682 0.802554 0.127054
0.902077 0.797759 0.126078
0.935795 0.794334 0.125702
0.967128 0.791402 0.126635
0.055155 0.745730 0.144027
0.073289 0.745821 0.138215
0.099720 0.748110 0.137686
0.124491 0.750840 0.136638
0.155457 0.754357 0.131931
0.192786 0.759103 0.122193
0.238443 0.768292 0.106016
0.326538 0.794176 0.107113
0.522143 0.835556 0.133164
0.667118 0.867852 0.160035
0.764142 0.881450 0.176043
0.826130 0.870617 0.154027
0.866540 0.854897 0.133995
0.902880 0.850215 0.133310
0.935908 0.845203 0.132796
0.967642 0.840420 0.132979
0.059619 0.794714 0.151542
0.077771 0.794864 0.145396
0.104216 0.796806 0.144571
0.128969 0.799758 0.143417
0.160828 0.803886 0.137791
0.198819 0.808680 0.126798
0.246169 0.816645 0.110884
0.333804 0.838967 0.112117
0.508681 0.875993 0.135403
0.647262 0.906986 0.161207
0.749300 0.918659 0.178410
0.821495 0.921864 0.186053
0.867833 0.917121 0.175938
0.900128 0.901890 0.142704
0.934501 0.895302 0.139973
0.967739 0.889261 0.139253
0.014741 0.020908 0.072553
0.040435 0.020006 0.072021
0.068587 0.019177 0.069885
0.106938 0.021461 0.068763
0.157664 0.027152 0.069586
0.217527 0.031705 0.068020
0.287642 0.033164 0.061569
0.372069 0.034988 0.064019
0.461420 0.042913 0.070259
0.542190 0.051984 0.076667
0.614785 0.066838 0.082578
0.675664 0.080013 0.087430
0.729378 0.092920 0.091606
0.778336 0.107844 0.096019
0.824743 0.124254 0.100228
0.866385 0.140431 0.104794
0.012345 0.041972 0.069658
0.038267 0.042667 0.069448
0.066157 0.041589 0.067680
0.105219 0.043664 0.066547
0.155809 0.048671 0.065787
0.214226 0.053661 0.062739
0.281934 0.059038 0.057177
0.364372 0.062189 0.058668
0.454517 0.068949 0.065251
0.539708 0.073931 0.072963
0.615113 0.083991 0.080073
0.677005 0.098296 0.085711
0.730895 0.112970 0.089898
0.780066 0.129125 0.094160
0.826921 0.145163 0.098284
0.867349 0.160374 0.102392
0.011133 0.063948 0.066146
0.034893 0.063967 0.065300
0.062216 0.063220 0.063208
0.102165 0.065033 0.061280
0.152679 0.069794 0.059087
0.209798 0.075461 0.055226
0.276755 0.080367 0.047993
0.358778 0.083627 0.048840
0.449584 0.089746 0.056401
0.537000 0.095767 0.064451
0.614839 0.102524 0.071249
0.677539 0.116144 0.076278
0.731243 0.131259 0.080012
0.780379 0.148194 0.083817
0.827703 0.164580 0.087546
0.867604 0.179189 0.091179
0.011603 0.093250 0.065571
0.032668 0.093171 0.064060
0.056742 0.092243 0.060059
0.094382 0.091636 0.058055
0.147608 0.096258 0.057293
0.207745 0.103528 0.055651
0.277799 0.109712 0.049611
0.364580 0.114770 0.049999
0.459009 0.122735 0.056573
0.548015 0.131034 0.064728
0.625234 0.139751 0.071559
0.687360 0.151581 0.076323
0.740491 0.166090 0.079936
0.790354 0.181943 0.083133
0.837843 0.198645 0.086561
0.874079 0.212877 0.088374
0.013100 0.128407 0.066418
0.033106 0.128262 0.064382
0.054826 0.127398 0.058812
0.087538 0.127587 0.057280
0.136286 0.127065 0.055432
0.199094 0.133689 0.054583
0.271303 0.142023 0.050328
0.363442 0.150723 0.050927
0.467333 0.161637 0.057456
0.563159 0.171663 0.065663
0.642859 0.181689 0.072598
0.703873 0.191919 0.077062
0.756419 0.203529 0.080281
0.806296 0.217410 0.083130
0.851081 0.232121 0.085648
0.883213 0.246390 0.086989
0.014819 0.168212 0.068657
0.033956 0.168123 0.066370
0.053908 0.167227 0.059026
0.084796 0.167106 0.057774
0.127645 0.169677 0.058178
0.186941 0.167851 0.055279
0.262350 0.176032 0.051388
0.359092 0.187286 0.050329
0.469931 0.203427 0.057934
0.572684 0.217709 0.066311
0.656475 0.229286 0.073801
0.719058 0.239895 0.078371
0.772760 0.252019 0.081659
0.823527 0.266602 0.084808
0.863140 0.280622 0.086301
0.894755 0.293576 0.087448
0.016093 0.212444 0.072273
0.035107 0.212452 0.069918
0.053695 0.211466 0.061438
0.084403 0.211429 0.060322
0.119906 0.213297 0.060342
0.179577 0.218736 0.062858
0.250680 0.215523 0.056627
0.356951 0.228312 0.050863
0.478994 0.247302 0.059868
0.586748 0.266078 0.068295
0.670910 0.283010 0.075126
0.734077 0.296832 0.080011
0.788955 0.310605 0.083732
0.837602 0.325451 0.086509
0.874521 0.339468 0.087756
0.906365 0.350949 0.088801
0.017200 0.263037 0.078777
0.036255 0.263148 0.076564
0.054403 0.262283 0.067273
0.084252 0.262964 0.066125
0.118260 0.265317 0.065343
0.166194 0.273499 0.066119
0.247987 0.284409 0.068601
0.355104 0.281848 0.057048
0.494131 0.304978 0.063049
0.609921 0.328146 0.072279
0.694227 0.348341 0.078123
0.757216 0.364704 0.082459
0.810451 0.379304 0.086114
0.850496 0.393215 0.088101
0.886530 0.406953 0.089769
0.918408 0.413809 0.090759
0.017465 0.324344 0.091208
0.036438 0.324834 0.089050
0.054497 0.324577 0.079190
0.083647 0.326112 0.077447
0.117580 0.328967 0.074483
0.158404 0.337434 0.071154
0.230077 0.357735 0.073635
0.371465 0.374561 0.075554
0.507978 0.377168 0.074178
0.633640 0.405773 0.078735
0.720430 0.429306 0.083614
0.784550 0.445302 0.087595
0.828116 0.457517 0.089751
0.864454 0.467603 0.091437
0.899138 0.474789 0.092631
0.931201 0.478366 0.093967
0.019331 0.396752 0.106689
0.038324 0.397512 0.104419
0.056235 0.397800 0.094062
0.085535 0.400336 0.091946
0.118994 0.404104 0.088505
0.159913 0.411764 0.083054
0.214557 0.432928 0.080554
0.368932 0.482102 0.098851
0.537252 0.484305 0.094761
0.653405 0.494286 0.098325
0.746367 0.519133 0.099508
0.805261 0.533463 0.099299
0.845067 0.541080 0.098278
0.879755 0.544503 0.097809
0.912687 0.543148 0.097563
0.944075 0.543392 0.098803
0.027553 0.483118 0.128036
0.046123 0.483755 0.125508
0.063827 0.484254 0.114616
0.093881 0.487685 0.112532
0.125711 0.490520 0.108351
0.164894 0.497180 0.101360
0.214635 0.515062 0.092779
0.341220 0.562743 0.104797
0.548955 0.607960 0.122459
0.673428 0.599253 0.119008
0.761132 0.606290 0.119894
0.817681 0.617640 0.118133
0.858666 0.624175 0.116299
0.893431 0.623195 0.114541
0.925924 0.620034 0.113405
0.956802 0.616794 0.113564
0.037167 0.568540 0.145957
0.055321 0.569030 0.143361
0.071786 0.568741 0.131893
0.102087 0.571236 0.129826
0.133854 0.574225 0.126139
0.171665 0.579650 0.118195
0.217338 0.591008 0.104848
0.325193 0.631047 0.109869
0.546053 0.688511 0.138455
0.679150 0.694178 0.135240
0.771793 0.687451 0.134464
0.822881 0.687501 0.132156
0.865683 0.691557 0.130016
0.901255 0.690187 0.128128
0.933573 0.688003 0.127385
0.963528 0.684443 0.127797
0.044435 0.635929 0.156382
0.062565 0.636247 0.153643
0.078618 0.635715 0.141744
0.108423 0.638139 0.140009
0.139406 0.640451 0.136358
0.176413 0.644577 0.128267
0.220560 0.654333 0.113722
0.311886 0.686190 0.113380
0.531212 0.740956 0.141520
0.678418 0.769186 0.163568
0.766012 0.753103 0.140882
0.824201 0.748516 0.139508
0.866015 0.747355 0.137916
0.902698 0.745026 0.136257
0.935700 0.743682 0.135988
0.966320 0.741808 0.137361
0.050567 0.695852 0.164294
0.068676 0.696038 0.161148
0.084734 0.695597 0.149111
0.114073 0.698179 0.147793
0.145531 0.700659 0.144037
0.182973 0.705146 0.135422
0.226828 0.713743 0.119715
0.313761 0.741442 0.117959
0.522838 0.789502 0.144699
0.673836 0.820902 0.171095
0.762584 0.823253 0.170190
0.823961 0.806822 0.146477
0.867244 0.803052 0.145157
0.902676 0.798302 0.144115
0.936458 0.794725 0.143670
0.968158 0.791660 0.144584
0.055704 0.749374 0.172447
0.073810 0.749448 0.169167
0.089883 0.748822 0.155710
0.119178 0.751413 0.154371
0.150536 0.754388 0.150115
0.188696 0.758752 0.140383
0.233373 0.766643 0.123986
0.316259 0.790633 0.122119
0.511009 0.832970 0.147068
0.661348 0.866172 0.175509
0.761116 0.881147 0.193165
0.825822 0.871444 0.174087
0.866789 0.855252 0.151738
0.903216 0.850538 0.151013
0.936483 0.845533 0.150470
0.968759 0.840517 0.150663
0.060098 0.798154 0.181663
0.078249 0.798334 0.178321
0.094334 0.797512 0.163828
0.123709 0.800258 0.162066
0.155908 0.803921 0.156671
0.194717 0.808382 0.145277
0.240888 0.815442 0.128512
0.324134 0.835873 0.127168
0.498322 0.873258 0.149434
0.641437 0.905545 0.176918
0.745013 0.918724 0.195248
0.819926 0.922194 0.203428
0.867683 0.917621 0.193946
0.900199 0.902059 0.160055
0.934704 0.895458 0.157371
0.968202 0.889474 0.156669
0.014498 0.026049 0.109739
0.039144 0.025306 0.109958
0.067245 0.024240 0.109040
0.104017 0.023450 0.105083
0.153915 0.027576 0.105861
0.212807 0.033743 0.107615
0.286717 0.034783 0.100393
0.377004 0.034456 0.094472
0.468636 0.044450 0.101705
0.552832 0.055719 0.109135
0.627100 0.066683 0.114843
0.688045 0.078401 0.117764
0.738985 0.090415 0.119359
0.787157 0.109239 0.123873
0.832139 0.127438 0.129004
0.871355 0.143846 0.133307
0.012597 0.047317 0.107251
0.037483 0.047644 0.108019
0.065348 0.046368 0.107319
0.102436 0.045421 0.103164
0.153326 0.049696 0.103907
0.213084 0.055240 0.104454
0.287368 0.055988 0.095918
0.377126 0.055222 0.091882
0.468815 0.062640 0.098453
0.551995 0.074547 0.105044
0.625136 0.087474 0.109991
0.686446 0.100897 0.113359
0.738677 0.113606 0.116531
0.788119 0.131079 0.121961
0.833798 0.147863 0.127057
0.872068 0.163370 0.131227
0.011173 0.069236 0.103539
0.034645 0.069459 0.103791
0.060410 0.067556 0.104120
0.100042 0.066294 0.100077
0.152701 0.070322 0.098596
0.213229 0.074086 0.093533
0.284230 0.078754 0.085135
0.370363 0.080904 0.083296
0.462233 0.085591 0.088667
0.548261 0.092595 0.095142
0.622966 0.102623 0.101030
0.684483 0.117667 0.105669
0.737189 0.132857 0.110106
0.786877 0.150070 0.114926
0.833094 0.166615 0.119842
0.871407 0.181487 0.123768
0.010858 0.093723 0.097801
0.031844 0.093852 0.097170
0.054828 0.093454 0.095946
0.091949 0.092370 0.092616
0.145823 0.095849 0.088391
0.204751 0.101058 0.082315
0.273910 0.105585 0.072683
0.359309 0.109508 0.069622
0.453640 0.114676 0.075251
0.542822 0.120095 0.082927
0.621515 0.126468 0.089830
0.684525 0.137871 0.094660
0.737887 0.153519 0.098533
0.787623 0.170224 0.102295
0.834539 0.186720 0.106429
0.872262 0.201112 0.109167
0.011295 0.129518 0.100000
0.030900 0.130090 0.098588
0.051897 0.129729 0.094745
0.081416 0.128441 0.087178
0.134112 0.127920 0.084559
0.199576 0.133313 0.082794
0.273158 0.139467 0.075428
0.364670 0.145385 0.072436
0.465052 0.153750 0.077384
0.556548 0.162372 0.083839
0.634808 0.171286 0.090257
0.696998 0.180804 0.094824
0.750441 0.192447 0.098185
0.800592 0.207047 0.101156
0.847202 0.222534 0.104103
0.880190 0.237105 0.105675
0.012317 0.171139 0.103738
0.031500 0.171061 0.101460
0.050994 0.169968 0.095529
0.077556 0.168380 0.085551
0.120521 0.169532 0.083934
0.185977 0.168823 0.081191
0.264431 0.175163 0.075061
0.361784 0.184814 0.071874
0.472068 0.198437 0.078887
0.572578 0.210074 0.086861
0.654055 0.219999 0.093075
0.715329 0.229826 0.096395
0.767923 0.241382 0.099251
0.817680 0.255831 0.102385
0.859212 0.269895 0.104244
0.890446 0.283077 0.105737
0.013172 0.216361 0.107978
0.032438 0.216060 0.105389
0.050749 0.214868 0.098617
0.075387 0.212765 0.086139
0.111478 0.213148 0.083217
0.171188 0.218771 0.084821
0.251006 0.216580 0.078917
0.358290 0.227651 0.071448
0.481162 0.244943 0.079924
0.587359 0.261931 0.087798
0.670139 0.276755 0.094578
0.732832 0.288590 0.099111
0.786982 0.300827 0.102231
0.836368 0.314961 0.104633
0.873117 0.328202 0.105655
0.904222 0.339794 0.106720
0.013532 0.268007 0.114774
0.032900 0.267839 0.112346
0.051296 0.266763 0.104924
0.074187 0.264764 0.090450
0.110509 0.265562 0.087045
0.156162 0.271996 0.086262
0.241770 0.284774 0.089246
0.355403 0.283127 0.078127
