LUT/Pure Cinematic.cube
LUT_3D_SIZE 6
0.014817 0.016037 0.015900
0.106691 0.020606 0.014319
0.274471 0.036043 0.011519
0.528698 0.053174 0.029528
0.723046 0.092001 0.045334
0.864847 0.140693 0.056727
0.013059 0.090769 0.014307
0.096499 0.090867 0.014401
0.276077 0.113365 0.012631
0.558035 0.138897 0.031069
0.747517 0.173427 0.045717
0.877774 0.221067 0.053014
0.017765 0.209106 0.023044
0.090595 0.211156 0.023902
0.251200 0.215875 0.022117
0.587567 0.269667 0.034359
0.790872 0.317272 0.049818
0.907906 0.359178 0.054802
0.021649 0.393323 0.057537
0.091804 0.399300 0.054634
0.222320 0.436181 0.047430
0.651142 0.492891 0.061456
0.843568 0.543861 0.063602
0.943209 0.546130 0.062675
0.043598 0.630540 0.105447
0.115018 0.636928 0.103202
0.226535 0.657580 0.077205
0.682439 0.768717 0.126231
0.864698 0.746417 0.101157
0.965407 0.741117 0.100940
0.059353 0.793195 0.126537
0.130132 0.799627 0.124478
0.248202 0.817541 0.092616
0.649086 0.907231 0.143840
0.867704 0.917041 0.157925
0.967360 0.889232 0.121092
0.014498 0.026049 0.109739
0.104017 0.023450 0.105083
0.286717 0.034783 0.100393
0.552832 0.055719 0.109135
0.738985 0.090415 0.119359
0.871355 0.143846 0.133307
0.010858 0.093723 0.097801
0.091949 0.092370 0.092616
0.273910 0.105585 0.072683
0.542822 0.120095 0.082927
0.737887 0.153519 0.098533
0.872262 0.201112 0.109167
0.013172 0.216361 0.107978
0.075387 0.212765 0.086139
0.251006 0.216580 0.078917
0.587359 0.261931 0.087798
0.786982 0.300827 0.102231
0.904222 0.339794 0.106720
0.018848 0.405814 0.143603
0.074792 0.402707 0.115312
0.204039 0.428755 0.098672
0.655453 0.496066 0.120916
0.846602 0.536655 0.118911
0.945058 0.538794 0.119870
0.045809 0.646116 0.195864
0.097386 0.640765 0.164010
0.213086 0.651644 0.135434
0.671955 0.769310 0.184549
0.867446 0.748552 0.159829
0.967303 0.741788 0.159163
0.060953 0.806220 0.226526
0.113108 0.802591 0.189470
0.232200 0.813883 0.151594
0.629391 0.902509 0.195515
0.867322 0.918676 0.216630
0.968703 0.890334 0.178287
0.013222 0.055647 0.274254
0.101275 0.052460 0.274141
0.265391 0.048639 0.256259
0.551601 0.079746 0.253621
0.760053 0.105509 0.247797
0.890017 0.146774 0.260480
0.010593 0.136128 0.263136
0.075325 0.119705 0.270578
0.266518 0.114419 0.252324
0.570222 0.136733 0.229622
0.767643 0.159541 0.230053
0.889885 0.203969 0.242761
0.011128 0.229342 0.245434
0.066897 0.228042 0.241667
0.222726 0.230893 0.236815
0.573727 0.248238 0.184208
0.766617 0.264559 0.180301
0.891444 0.305169 0.190333
0.027709 0.471424 0.334644
0.079036 0.466991 0.309542
0.161766 0.432171 0.226236
0.653880 0.504100 0.210750
0.853739 0.515153 0.201657
0.944997 0.513733 0.207176
0.052605 0.704873 0.410834
0.106135 0.696753 0.372828
0.182875 0.666130 0.272564
0.608533 0.762209 0.262750
0.875247 0.756680 0.246731
0.973364 0.744936 0.246404
0.063762 0.841790 0.440234
0.120199 0.838655 0.402833
0.201823 0.825479 0.296823
0.543762 0.881042 0.264863
0.864741 0.927835 0.314170
0.972281 0.896914 0.264436
0.023406 0.129049 0.496493
0.118752 0.109116 0.495274
0.264014 0.109388 0.483532
0.526677 0.105350 0.423636
0.753592 0.130162 0.438746
0.897524 0.189320 0.505834
0.021350 0.228402 0.495213
0.083522 0.180762 0.501512
0.243547 0.173650 0.495079
0.534343 0.165817 0.426176
0.759646 0.191189 0.437499
0.901446 0.252949 0.499829
0.021123 0.329810 0.492148
0.076428 0.325566 0.495269
0.169820 0.295861 0.512238
0.543980 0.285900 0.447026
0.775526 0.308015 0.435657
0.913807 0.343418 0.445214
0.024640 0.482350 0.522406
0.083983 0.490447 0.528283
0.175238 0.507743 0.540631
0.544630 0.570760 0.560434
0.837496 0.538549 0.440501
0.934868 0.530072 0.383013
0.055530 0.729763 0.632036
0.116869 0.738427 0.628360
0.203361 0.750388 0.605636
0.404342 0.756438 0.479676
0.875306 0.782533 0.415954
0.978000 0.761169 0.409680
0.075088 0.877912 0.666361
0.133903 0.882959 0.655970
0.218565 0.881424 0.604016
0.434036 0.887533 0.453360
0.819375 0.944248 0.477899
0.972401 0.911852 0.398160
0.037599 0.187152 0.689818
0.144027 0.173940 0.697231
0.296313 0.170192 0.685455
0.507524 0.168212 0.665268
0.740127 0.162006 0.639444
0.891181 0.190128 0.659066
0.036820 0.307581 0.696473
0.099607 0.248202 0.703731
0.266578 0.233929 0.696896
0.495139 0.230825 0.676121
0.743571 0.222158 0.647145
0.895100 0.256560 0.665725
0.037520 0.420136 0.710629
0.091143 0.411491 0.712609
0.179003 0.355908 0.719526
0.437712 0.345523 0.717893
0.761686 0.336211 0.677902
0.915737 0.378360 0.699529
0.041989 0.572462 0.749986
0.103242 0.573077 0.753720
0.191521 0.570014 0.760620
0.378072 0.575576 0.801362
0.830993 0.561953 0.783822
0.963852 0.573748 0.761840
0.058607 0.727028 0.780126
0.120980 0.735162 0.784713
0.212098 0.752260 0.794761
0.335822 0.781969 0.809070
0.835857 0.832411 0.812892
0.985219 0.811563 0.772891
0.082264 0.871418 0.810721
0.142681 0.879708 0.813313
0.233023 0.896100 0.814555
0.338445 0.922407 0.798679
0.763464 0.954492 0.723845
0.983033 0.948365 0.686576
0.048085 0.263470 0.824554
0.152251 0.222144 0.843637
0.313804 0.218239 0.849874
0.483591 0.212869 0.851132
0.736035 0.215926 0.858760
0.889768 0.233568 0.847708
0.048034 0.363530 0.836629
0.106868 0.321739 0.839870
0.279502 0.283689 0.856095
0.468225 0.274918 0.855918
0.737356 0.281315 0.862464
0.894987 0.299678 0.855572
0.048671 0.476297 0.854187
0.101946 0.465899 0.855759
0.186496 0.411813 0.864295
0.427521 0.400627 0.882740
0.753794 0.401209 0.887021
0.923200 0.422799 0.888752
0.054037 0.617549 0.885722
0.115690 0.616295 0.889218
0.205369 0.608586 0.896704
0.368840 0.587061 0.927900
0.794078 0.593749 0.949340
0.964009 0.606024 0.941850
0.072441 0.756215 0.912274
0.134499 0.759708 0.916502
0.225172 0.766010 0.924944
0.331249 0.781975 0.946108
0.784581 0.812636 0.979334
0.986814 0.814768 0.973844
0.090391 0.867599 0.921848
0.150446 0.873725 0.926067
0.240233 0.885258 0.934088
0.341534 0.901578 0.945158
0.633658 0.939389 0.968658
0.984328 0.982088 0.962435
